!!!!SEGMENT: pl-wtm--r-1740-m--001-007_moniuszko-stanislaw--sonety-krymskie-noc.krn
!!!cenid: 18xx:2914
!!!COM: Moniuszko, Stanisław
!!!COM-rismid: pe30008351
!!!CDT: 1819/05/05-1872/06/04
!!!CNT: Polish
!!!GTL: Sonety krymskie
!!!OTL: Noc
!!!OMV: 007
!!!PDT:
!!!AGN: Secular; Sonnet
!!!SMS-siglum: PL-Wtm
!!!SMS-shelfmark: R 1740/M
!!!SMS-shelfwork: 001-007 G
!!!SMS-variant:
!!!SMS-altvar:
!!!NIFC-rismid: 1001096349
!!!URL-scan: http://repozytorium.nifc.pl/skany/pl-wtm-nut--r1740m
!!!ONB-nifc: UWAGA: w zbiorze 2 aranżacje Sonetów. Pliki nr 001-001-010 w obsadzie vl (2), vla, vlc, cb, physharmonica, pf 4hands i pliki 002-001-009 na instrumenty dęte od skanu 0088.
**kern	**dynam	**kern	**dynam	**kern	**dynam	**kern	**dynam	**kern	**dynam	**kern	**kern	**dynam	**kern	**kern	**dynam	**kern	**kern	**dynam
*part8	*part8	*part7	*part7	*part6	*part6	*part5	*part5	*part4	*part4	*part3	*part3	*part3	*part2	*part2	*part2	*part1	*part1	*part1
*staff11	*	*staff10	*	*staff9	*	*staff8	*	*staff7	*	*staff6	*staff5	*	*staff4	*staff3	*	*staff2	*staff1	*
*I"CB	*	*I"Vlc	*	*I"Vla	*	*I"V. 2.	*	*I"V. 1.	*	*I"Fortepiano.	*I"Fortepiano.	*	*I"Fortepiano.	*I"Fortepiano.	*	*I"Physharmonica.	*I"Physharmonica.	*
*clefF4	*	*clefF4	*	*clefC3	*	*clefG2	*	*clefG2	*	*clefF4	*clefF4	*	*clefG2	*clefG2	*	*clefF4	*clefG2	*
*ITrd0c0	*	*	*	*	*	*	*	*	*	*	*	*	*	*	*	*	*	*
*k[b-e-a-d-g-]	*	*k[b-e-a-d-g-]	*	*k[b-e-a-d-g-]	*	*k[b-e-a-d-g-]	*	*k[b-e-a-d-g-]	*	*k[b-e-a-d-g-]	*k[b-e-a-d-g-]	*	*k[b-e-a-d-g-]	*k[b-e-a-d-g-]	*	*k[b-e-a-d-g-]	*k[b-e-a-d-g-]	*
*D-:	*	*D-:	*	*D-:	*	*D-:	*	*D-:	*	*D-:	*D-:	*	*D-:	*D-:	*	*D-:	*D-:	*
*M6/8	*	*M6/8	*	*M6/8	*	*M6/8	*	*M6/8	*	*M6/8	*M6/8	*	*M6/8	*M6/8	*	*M6/8	*M6/8	*
*all\right	*	*all\right	*	*all\right	*	*all\right	*	*all\right	*	*all\right	*all\right	*	*all\right	*all\right	*	*all\right	*all\right	*
*>[A,A1,A,A2,B]	*	*>[A,A1,A,A2,B]	*	*>[A,A1,A,A2,B]	*	*>[A,A1,A,A2,B]	*	*>[A,A1,A,A2,B]	*	*>[A,A1,A,A2,B]	*>[A,A1,A,A2,B]	*	*>[A,A1,A,A2,B]	*>[A,A1,A,A2,B]	*	*>[A,A1,A,A2,B]	*>[A,A1,A,A2,B]	*
=1	=1	=1	=1	=1	=1	=1	=1	=1	=1	=1	=1	=1	=1	=1	=1	=1	=1	=1
*>A	*	*>A	*	*>A	*	*>A	*	*>A	*	*>A	*>A	*	*>A	*>A	*	*>A	*>A	*
*2\right	*	*	*	*	*	*	*	*	*	*	*ped	*	*	*	*	*	*	*
[2.D-\	.	2.ryy	.	2.r	.	2.r	.	2.r	.	4DD-/	8r	.	2.ryy	2.ryy	.	2.r	2.r	.
.	.	.	.	.	.	.	.	.	.	.	8AA-^/L	p	.	.	.	.	.	.
.	.	.	.	.	.	.	.	.	.	8r	8D-'/J	.	.	.	.	.	.	.
.	.	.	.	.	.	.	.	.	.	4r	8A-^\L	.	.	.	.	.	.	.
.	.	.	.	.	.	.	.	.	.	.	8D-'\	.	.	.	.	.	.	.
.	.	.	.	.	.	.	.	.	.	8r	8AA-^\J	.	.	.	.	.	.	.
=2	=2	=2	=2	=2	=2	=2	=2	=2	=2	=2	=2	=2	=2	=2	=2	=2	=2	=2
*	*	*	*	*	*	*	*	*	*	*rep	*rep	*	*	*	*	*	*	*
!	!	!	!	!	!	!LO:TX:b:t=Co	!	!LO:TX:b:t=con sord.	!	!	!	!	!	!	!	!	!	!
2.D-\_	.	2.ryy	.	2.r	.	2.r	.	2.r	.	4DD-/	8r	.	2.ryy	2.ryy	.	2.r	2.r	.
.	.	.	.	.	.	.	.	.	.	.	8AA-^/L	.	.	.	.	.	.	.
.	.	.	.	.	.	.	.	.	.	8r	8D-'/J	.	.	.	.	.	.	.
.	.	.	.	.	.	.	.	.	.	4r	8A-^\L	.	.	.	.	.	.	.
.	.	.	.	.	.	.	.	.	.	.	8D-'\	.	.	.	.	.	.	.
.	.	.	.	.	.	.	.	.	.	8r	8AA-^\J	.	.	.	.	.	.	.
*	*	*	*	*	*	*	*	*	*	*Xrep	*Xrep	*	*	*	*	*	*	*
=3	=3	=3	=3	=3	=3	=3	=3	=3	=3	=3	=3	=3	=3	=3	=3	=3	=3	=3
*	*	*	*	*	*	*	*	*	*	*rep	*rep	*	*	*	*	*	*	*
!	!	!	!	!	!	!	!	!LO:TX:b:i:t=dolce	!	!	!	!	!	!	!	!	!	!LO:DY:t=pp.:rj
2.D-\_	.	2.ryy	.	2.r	.	2.r	.	(4a-/	.	4DD-/	8r	.	2.ryy	2.ryy	.	2.ryy	2.a-/	pp
.	.	.	.	.	.	.	.	.	.	.	8AA-^/L	.	.	.	.	.	.	.
.	.	.	.	.	.	.	.	8aa-\	.	8r	8D-'/J	.	.	.	.	.	.	.
.	.	.	.	.	.	.	.	8ff\L	.	4r	8A-^\L	.	.	.	.	.	.	.
.	.	.	.	.	.	.	.	8ee-\	.	.	8D-'\	.	.	.	.	.	.	.
.	.	.	.	.	.	.	.	8dd-\J)	.	8r	8AA-^\J	.	.	.	.	.	.	.
*	*	*	*	*	*	*	*	*	*	*Xrep	*Xrep	*	*	*	*	*	*	*
=4	=4	=4	=4	=4	=4	=4	=4	=4	=4	=4	=4	=4	=4	=4	=4	=4	=4	=4
*rep	*	*	*	*	*	*	*	*	*	*rep	*rep	*	*	*	*	*	*	*
2.D-\_	.	2.ryy	.	2.r	.	2.r	.	[2.a-/	.	4DD-/	8r	.	2.ryy	2.ryy	.	2.ryy	2.a-/	.
.	.	.	.	.	.	.	.	.	.	.	8AA-^/L	.	.	.	.	.	.	.
.	.	.	.	.	.	.	.	.	.	8r	8D-'/J	.	.	.	.	.	.	.
.	.	.	.	.	.	.	.	.	.	4r	8A-^\L	.	.	.	.	.	.	.
.	.	.	.	.	.	.	.	.	.	.	8D-'\	.	.	.	.	.	.	.
.	.	.	.	.	.	.	.	.	.	8r	8AA-^\J	.	.	.	.	.	.	.
*Xrep	*	*	*	*	*	*	*	*	*	*Xrep	*Xrep	*	*	*	*	*	*	*
=5	=5	=5	=5	=5	=5	=5	=5	=5	=5	=5	=5	=5	=5	=5	=5	=5	=5	=5
*rep	*	*	*	*	*	*	*	*	*	*rep	*rep	*	*	*	*	*	*	*
!	!	!LO:TX:a:t=con sord.	!	!	!	!	!	!	!	!	!	!	!	!	!	!	!	!
2.D-\_	.	(4AA-^/	.	2.r	.	2.r	.	4a-/]	.	4DD-/	8r	.	2.ryy	2.ryy	.	2.ryy	2.a-/	.
.	.	.	.	.	.	.	.	.	.	.	8AA-^/L	.	.	.	.	.	.	.
.	.	8D-/	.	.	.	.	.	8r	.	8r	8D-'/J	.	.	.	.	.	.	.
.	.	8C/L	.	.	.	.	.	4r	.	4r	8A-^\L	.	.	.	.	.	.	.
.	.	8BB-/)	.	.	.	.	.	.	.	.	8D-'\	.	.	.	.	.	.	.
.	.	8AA-'/J	.	.	.	.	.	8r	.	8r	8AA-^\J	.	.	.	.	.	.	.
*Xrep	*	*	*	*	*	*	*	*	*	*Xrep	*Xrep	*	*	*	*	*	*	*
=6	=6	=6	=6	=6	=6	=6	=6	=6	=6	=6	=6	=6	=6	=6	=6	=6	=6	=6
*rep	*	*2\right	*	*	*	*	*	*	*	*rep	*rep	*	*	*	*	*	*	*
2.D-\_	.	[2.F\	.	2.r	.	2.r	.	4r	.	4DD-/	8r	.	2.ryy	2.ryy	.	2.ryy	2.a-/	.
.	.	.	.	.	.	.	.	.	.	.	8AA-^/L	.	.	.	.	.	.	.
.	.	.	.	.	.	.	.	8r	.	8r	8D-'/J	.	.	.	.	.	.	.
.	.	.	.	.	.	.	.	4r	.	4r	8A-^\L	.	.	.	.	.	.	.
.	.	.	.	.	.	.	.	.	.	.	8D-'\	.	.	.	.	.	.	.
.	.	.	.	.	.	.	.	8a-/	.	8r	8AA-^\J	.	.	.	.	.	.	.
*Xrep	*	*	*	*	*	*	*	*	*	*Xrep	*Xrep	*	*	*	*	*	*	*
!!LO:PB:g=original
=7	=7	=7	=7	=7	=7	=7	=7	=7	=7	=7	=7	=7	=7	=7	=7	=7	=7	=7
*	*	*	*	*	*	*	*	*	*	*rep	*rep	*	*	*	*	*	*	*
2.D-\_	.	2.F\_	.	2.r	.	2.r	.	(4a-^/	.	4DD-/	8r	.	2.r	2.r	.	[2.AA-/	[>2.a-/	.
.	.	.	.	.	.	.	.	.	.	.	8AA-^/L	.	.	.	.	.	.	.
.	.	.	.	.	.	.	.	8aa-\	.	8r	8D-'/J	.	.	.	.	.	.	.
.	.	.	.	.	.	.	.	8ff\L	.	4r	8A-^\L	.	.	.	.	.	.	.
.	.	.	.	.	.	.	.	8ee-\	.	.	8D-'\	.	.	.	.	.	.	.
.	.	.	.	.	.	.	.	8dd-\J)	.	8r	8AA-^\J	.	.	.	.	.	.	.
*	*	*	*	*	*	*	*	*	*	*Xrep	*Xrep	*	*	*	*	*	*	*
=8	=8	=8	=8	=8	=8	=8	=8	=8	=8	=8	=8	=8	=8	=8	=8	=8	=8	=8
*rep	*	*	*	*	*	*	*	*	*	*rep	*rep	*	*	*	*	*	*	*
!	!	!	!	!LO:TX:b:t=con sord.:rj	!	!LO:TX:a:t=con sord.	!	!	!	!	!	!	!	!	!	!	!	!
2.D-\_	.	4.F\]	.	(4A-^/	.	(4A-^/	.	[2.a-/	.	4DD-/	8r	.	2.r	2.r	.	2.AA-/_	2.a-/_>	.
.	.	.	.	.	.	.	.	.	.	.	8AA-^/L	.	.	.	.	.	.	.
.	.	.	.	8a-\	.	8a-/	.	.	.	8r	8D-'/J	.	.	.	.	.	.	.
.	.	4D-\	.	8f\L	.	8f/L	.	.	.	4r	8A-^\L	.	.	.	.	.	.	.
.	.	.	.	8e-\)	.	8e-/)	.	.	.	.	8D-'\	.	.	.	.	.	.	.
.	.	8r	.	8d-'\J	.	8d-|</J	.	.	.	8r	8AA-^\J	.	.	.	.	.	.	.
*Xrep	*	*	*	*	*	*	*	*	*	*Xrep	*Xrep	*	*	*	*	*	*	*
=9	=9	=9	=9	=9	=9	=9	=9	=9	=9	=9	=9	=9	=9	=9	=9	=9	=9	=9
*rep	*	*	*	*	*	*	*	*	*	*rep	*rep	*	*	*	*	*	*	*
2.D-\_	.	(4AA-^/	.	(4A-/	.	8r	.	4a-/]	.	4DD-/	8r	.	2.r	2.r	.	2.AA-/_	2.a-/_>	.
.	.	.	.	.	.	(8d-/L	.	.	.	.	8AA-^/L	.	.	.	.	.	.	.
.	.	8F\	.	8d-\	.	8f/J	.	8r	.	8r	8D-'/J	.	.	.	.	.	.	.
.	.	8G-\L	.	8c\)	.	8e-/)	.	4r	.	4r	8A-^\L	.	.	.	.	.	.	.
.	.	8F\)	.	8r	.	8r	.	.	.	.	8D-'\	.	.	.	.	.	.	.
.	.	8E-'\J	.	8c\	.	8g-/	.	8r	.	8r	8AA-^\J	.	.	.	.	.	.	.
*Xrep	*	*	*	*	*	*	*	*	*	*Xrep	*Xrep	*	*	*	*	*	*	*
=10	=10	=10	=10	=10	=10	=10	=10	=10	=10	=10	=10	=10	=10	=10	=10	=10	=10	=10
*rep	*	*	*	*	*	*	*	*	*	*rep	*rep	*	*	*	*	*	*	*
2.D-\_	.	[4.A-\	.	(4d-^\	.	8f/	.	2.r	.	4DD-/	8r	.	2.r	2.r	.	2.AA-/_ [2.F	2.a-/_>	.
.	.	.	.	.	.	8r	.	.	.	.	8AA-^/L	.	.	.	.	.	.	.
.	.	.	.	8f\	.	(8f/	.	.	.	8r	8D-'/J	.	.	.	.	.	.	.
.	.	4A-\]	.	8e-\L	.	8e-/L	.	.	.	4r	8A-^\L	.	.	.	.	.	.	.
.	.	.	.	8d-\)	.	8d-/)	.	.	.	.	8D-'\	.	.	.	.	.	.	.
.	.	8r	.	8c\J	.	8c/J	.	.	.	8r	8AA-^\J	.	.	.	.	.	.	.
*Xrep	*	*	*	*	*	*	*	*	*	*Xrep	*Xrep	*	*	*	*	*	*	*
=11	=11	=11	=11	=11	=11	=11	=11	=11	=11	=11	=11	=11	=11	=11	=11	=11	=11	=11
*rep	*	*	*	*	*	*	*	*	*	*rep	*rep	*	*	*	*	*rep	*	*
2.D-\_	.	2.r	.	(4.B-'/	.	(4.B-/	.	(4a-\	.	4DD-/	8r	.	2.r	2.r	.	2.AA-/] 2.F]	2.a-/_>	.
.	.	.	.	.	.	.	.	.	.	.	8AA-^/L	.	.	.	.	.	.	.
.	.	.	.	.	.	.	.	8aa-\	.	8r	8D-'/J	.	.	.	.	.	.	.
.	.	.	.	4A-/)	.	4A-/)	.	8ff\L	.	4r	8A-^\L	.	.	.	.	.	.	.
.	.	.	.	.	.	.	.	8ee-\	.	.	8D-'\	.	.	.	.	.	.	.
.	.	.	.	8r	.	8r	.	8dd-\J)	.	8r	8AA-^\J	.	.	.	.	.	.	.
*Xrep	*	*	*	*	*	*	*	*	*	*Xrep	*Xrep	*	*	*	*	*Xrep	*	*
=12	=12	=12	=12	=12	=12	=12	=12	=12	=12	=12	=12	=12	=12	=12	=12	=12	=12	=12
*	*	*	*	*	*	*	*	*	*	*	*	*	*	*	*	*^	*	*
*rep	*	*	*	*	*	*	*	*	*	*rep	*rep	*	*	*	*	*	*2\right	*	*
2.D-\_	.	2.r	.	(4.A-^/	.	8r	.	[2.a-/	.	4DD-/	8r	.	2.r	2.r	.	4.F/	[2.AA-\	2.a-/_>	.
.	.	.	.	.	.	(8f/L	.	.	.	.	8AA-^/L	.	.	.	.	.	.	.	.
.	.	.	.	.	.	8d-/J	.	.	.	8r	8D-'/J	.	.	.	.	.	.	.	.
.	.	.	.	8G-/L	.	8B-/L	.	.	.	4r	8A-^\L	.	.	.	.	8G-/L	.	.	.
.	.	.	.	8F/)	.	8d-/)	.	.	.	.	8D-'\	.	.	.	.	8F/	.	.	.
.	.	.	.	8E-'/J	.	8c'/J	.	.	.	8r	8AA-^\J	.	.	.	.	8E-/J	.	.	.
*Xrep	*	*	*	*	*	*	*	*	*	*Xrep	*Xrep	*	*	*	*	*	*	*	*
=13	=13	=13	=13	=13	=13	=13	=13	=13	=13	=13	=13	=13	=13	=13	=13	=13	=13	=13	=13
*rep	*	*	*	*	*	*	*	*	*	*rep	*rep	*	*	*	*	*	*	*	*
!	!	!	!	!	!	!LO:TX:t=P:problem:mixed beam	!	!	!	!	!	!	!	!	!	!	!	!	!
!	!	!	!	!	!	!	!	!	!	!	!	!	!	!	!	!	!	!LO:TX:t=P:problem:brak początku łuku	!
2.D-\_	.	(4A-^\	.	8D-/	.	(8d-/L	.	4a-/]	.	4DD-/	8r	.	2.r	2.r	.	4A-/	2AA-\]	2.a-/_>	.
.	.	.	.	8r	.	8dd-\	.	.	.	.	8AA-^/L	.	.	.	.	.	.	.	.
.	.	8d-\	.	(8f\	.	8b-\J	.	8r	.	8r	8D-'/J	.	.	.	.	8r	.	.	.
.	.	8c\L	.	4e-\	.	8a-/L	.	4r	.	4r	8A-^\L	.	.	.	.	4r	.	.	.
.	.	8B-\)	.	.	.	8g-/)	.	.	.	.	8D-'\	.	.	.	.	.	4ryy	.	.
.	.	8A-\J	.	8c\)	.	8e-'/J	.	8r	.	8r	8AA-^\J	.	.	.	.	8r	.	.	.
*Xrep	*	*	*	*	*	*	*	*	*	*Xrep	*Xrep	*	*	*	*	*	*	*	*
*	*	*	*	*	*	*	*	*	*	*	*	*	*	*	*	*v	*v	*	*
!!LO:PB:g=original
=14	=14	=14	=14	=14	=14	=14	=14	=14	=14	=14	=14	=14	=14	=14	=14	=14	=14	=14
*rep	*	*	*	*	*	*	*	*	*	*rep	*rep	*	*	*	*	*	*	*
2.D-\_	.	(2.f\	.	8d-\	.	8a-/	.	2.r	.	4DD-/	8r	.	2.r	2.r	.	2.D-\ 2.A-	2.a-/]	.
.	.	.	.	8r	.	8r	.	.	.	.	8AA-^/L	.	.	.	.	.	.	.
.	.	.	.	8d-\	.	8a-/	.	.	.	8r	8D-'/J	.	.	.	.	.	.	.
.	.	.	.	4d-^\	.	(4dd-^\	.	.	.	4r	8A-^\L	.	.	.	.	.	.	.
.	.	.	.	.	.	.	.	.	.	.	8D-'\	.	.	.	.	.	.	.
.	.	.	.	8d-'\	.	8a-'/)	.	.	.	8r	8AA-^\J	.	.	.	.	.	.	.
*Xrep	*	*	*	*	*	*	*	*	*	*Xrep	*Xrep	*	*	*	*	*	*	*
=15	=15	=15	=15	=15	=15	=15	=15	=15	=15	=15	=15	=15	=15	=15	=15	=15	=15	=15
*	*	*	*	*	*	*	*	*	*	*	*	*	*	*	*	*^	*^	*
*	*	*	*	*	*	*	*	*	*	*rep	*rep	*	*	*	*	*	*	*	*2\right	*
2.D-\_	<[	2.d-\)	<[	2.ryy	.	(>2.a-/	<[	(4a-\	<	4DD-/	8r	<	2.r	2.r	.	[2.A-/	[2.F\	[2.a-/	[2.d-\	<
.	.	.	.	.	.	.	.	.	.	.	8AA-^/L	.	.	.	.	.	.	.	.	.
.	.	.	.	.	.	.	.	8aa-\	.	8r	8D-'/J	.	.	.	.	.	.	.	.	.
.	.	.	.	.	.	.	.	8ff\L	.	4r	8A-^\L	.	.	.	.	.	.	.	.	.
.	.	.	.	.	.	.	.	8ee-\)	.	.	8D-'\	.	.	.	.	.	.	.	.	.
.	.	.	.	.	.	.	.	8dd-\J	[[	8r	8AA-^\J	[[	.	.	.	.	.	.	.	.
*	*	*	*	*	*	*	*	*	*	*Xrep	*Xrep	*	*	*	*	*	*	*	*	*
=16	=16	=16	=16	=16	=16	=16	=16	=16	=16	=16	=16	=16	=16	=16	=16	=16	=16	=16	=16	=16
*	*	*	*	*	*	*2\right	*	*	*	*rep	*rep	*	*	*	*	*	*	*	*	*
2.D-\]	sf > ]]	[4.d-\	sf >	2.F^/	.	([2.dd-\)	sf	([4.ddd-\	>	4DD-/	8r	sf	2.r	2.r	.	2.A-/_	2.F\]	2.a-/]	2.d-\]	[ >
.	.	.	.	.	.	.	.	.	.	.	8AA-^/L	>	.	.	.	.	.	.	.	.
.	.	.	.	.	.	.	.	.	.	8r	8D-'/J	.	.	.	.	.	.	.	.	.
.	.	4d-\]	]	.	.	.	.	4ddd-\]	.	4r	8A-^\L	.	.	.	.	.	.	.	.	.
.	.	.	.	.	.	.	.	.	.	.	8D-'\	.	.	.	.	.	.	.	.	.
.	.	8ryy	.	.	.	.	.	8ff\)	]]	8r	8AA-^\J	]]	.	.	.	.	.	.	.	.
*	*	*	*	*	*	*	*	*	*	*Xrep	*Xrep	*	*	*	*	*	*	*	*	*
*	*	*	*	*	*	*	*	*	*	*	*	*	*	*	*	*	*	*v	*v	*
=17	=17	=17	=17	=17	=17	=17	=17	=17	=17	=17	=17	=17	=17	=17	=17	=17	=17	=17	=17
*	*	*clefC4	*	*	*	*	*	*	*	*	*	*	*	*	*	*	*	*	*
*	*	*	*	*	*	*	*	*2\right	*	*	*	*	*	*	*	*	*	*	*
2.AA-/	.	(4A-^\	.	[4.A-/	.	8dd-\L]	.	([2.aa-\	.	4AAA-/	8r	.	2.r	2.r	.	4.A-/]	2.AA-\	(>4.a-/	]
.	.	.	.	.	.	8ff\	.	.	.	.	8AA-/L	.	.	.	.	.	.	.	.
.	.	8f\	.	.	.	8dd-\J	.	.	.	8r	8D-/J	.	.	.	.	.	.	.	.
!	!	!	!	!	!	!	!	!	!	!	!LO:TX:t=P:problem:mixed beam	!	!	!	!	!	!	!	!
.	.	8g-\L	.	4A-/]	.	8b-/L	.	.	.	4r	8A-\L	.	.	.	.	4.E-/	.	8g-/L 8b-	.
.	.	8f\)	.	.	.	8a-/)	.	.	.	.	8AA-/	.	.	.	.	.	.	8f/ 8a-	.
.	.	8e-\J	.	8g-\	.	8cc/J	.	.	.	8r	8A-\J	.	.	.	.	.	.	8e-/J 8g-	.
=18	=18	=18	=18	=18	=18	=18	=18	=18	=18	=18	=18	=18	=18	=18	=18	=18	=18	=18	=18
*	*	*	*	*	*	*	*	*	*	*	*	*	*	*	*	*	*	*^	*
!	!	!	!	!LO:TX:t=P:problem:mixed beam	!	!	!	!	!	!	!	!	!	!	!	!	!	!	!	!
2.D-\	.	(4f^\	.	(8f^\L	.	(8dd-/L	.	8aa-\L]	.	4DD-/	8r	.	2.r	2.r	.	2.D-/	2.D-\	[>4.a-/	N[>4d-\	.
.	.	.	.	8A-/)	.	8a-/	.	8ff\	.	.	8AA-/L	.	.	.	.	.	.	.	.	.
.	.	8A-\)	.	8c/J	.	8g-/J	.	8ee-\J	.	8r	8A-\J	.	.	.	.	.	.	.	8c\	.
!	!	!	!	!LO:TX:t=P:problem:mixed beam	!	!	!	!	!	!	!LO:TX:t=P:problem:mixed beam	!	!	!	!	!	!	!	!	!
.	.	4A-/	.	(8d-^\L	.	8f/L	.	8dd-\L	.	4r	8D-/L	.	.	.	.	.	.	4a-/])	4.d-\N]	.
.	.	.	.	8F/)	.	8d-/)	.	8a-\	.	.	8AA-/	.	.	.	.	.	.	.	.	.
.	.	8D-/	.	8G-/J	.	8d-'/J	.	8b-\J)	.	8r	8A-\J	.	.	.	.	.	.	8b-/	.	.
*	*	*	*	*	*	*	*	*	*	*	*	*	*	*	*	*v	*v	*	*	*
*	*	*	*	*	*	*	*	*	*	*	*	*	*	*	*	*	*v	*v	*
!!LO:PB:g=original
=19	=19	=19	=19	=19	=19	=19	=19	=19	=19	=19	=19	=19	=19	=19	=19	=19	=19	=19
*	*	*	*	*	*	*	*	*	*	*	*ped	*	*	*ped	*	*	*	*
!LO:TX:b:t=pizzi	!	!LO:TX:b:t=doliciſsime.	!	!	!	!	!	!LO:TX:b:t=doliciſsime.	!	!	!	!	!	!	!	!	!	!
4AA-/	.	4.e-\	.	2.r	.	2.r	.	4.cc\	.	4AAA-/	8r	.	2.r	2.r	.	[>2.E-\ [>2.G-	2.r	.
.	.	.	.	.	.	.	.	.	.	.	8AA-^/L	.	.	.	.	.	.	.
8r	.	.	.	.	.	.	.	.	.	8r	8E-/J	.	.	.	.	.	.	.
4r	.	(8d-\L	.	.	.	.	.	(8b-\L	.	4r	8G-^/L	.	.	.	.	.	.	.
.	.	8e-\)	.	.	.	.	.	8cc\)	.	.	8E-/	.	.	.	.	.	.	.
8r	.	8d-\J	.	.	.	.	.	8b-\J	.	8r	8AA-/J	.	.	.	.	.	.	.
=20	=20	=20	=20	=20	=20	=20	=20	=20	=20	=20	=20	=20	=20	=20	=20	=20	=20	=20
*	*	*	*	*	*	*	*	*	*	*rep	*rep	*	*	*	*	*rep	*	*
*rep	*	*	*	*	*	*	*	*	*	*	*ped	*	*	*	*	*	*	*
4AA-/	.	(4.d-\	.	2.r	.	2.r	.	(4.cc\	.	4AAA-/	8r	.	2.r	2.r	.	2.E-\_> 2.G-_>	2.r	.
.	.	.	.	.	.	.	.	.	.	.	8AA-^/L	.	.	.	.	.	.	.
8r	.	.	.	.	.	.	.	.	.	8r	8E-/J	.	.	.	.	.	.	.
4r	.	4c\)	.	.	.	.	.	4.a-\)	.	4r	8G-^/L	.	.	.	.	.	.	.
.	.	.	.	.	.	.	.	.	.	.	8E-/	.	.	.	.	.	.	.
8r	.	8r	.	.	.	.	.	.	.	8r	8AA-/J	.	.	.	.	.	.	.
*Xrep	*	*	*	*	*	*	*	*	*	*Xrep	*Xrep	*	*	*	*	*Xrep	*	*
=21	=21	=21	=21	=21	=21	=21	=21	=21	=21	=21	=21	=21	=21	=21	=21	=21	=21	=21
*	*	*	*	*	*	*	*	*	*	*rep	*rep	*	*	*	*	*rep	*	*
*rep	*	*	*	*	*	*	*	*	*	*	*ped	*	*	*	*	*	*	*
!	!	!	!	!	!LO:DY:t=pp.:rj	!	!LO:DY:rj	!	!	!	!	!	!	!	!	!	!	!
4AA-/	.	4.c\	.	[>2.G-/	pp	[>2.e-/	pp	4.ee-\	.	4AAA-/	8r	.	2.r	2.r	.	2.E-\_> 2.G-_>	2.r	.
.	.	.	.	.	.	.	.	.	.	.	8AA-^/L	.	.	.	.	.	.	.
8r	.	.	.	.	.	.	.	.	.	8r	8E-/J	.	.	.	.	.	.	.
4r	.	(8B-\L	.	.	.	.	.	(8dd-\L	.	4r	8G-^/L	.	.	.	.	.	.	.
.	.	8c\)	.	.	.	.	.	8ee-\)	.	.	8E-/	.	.	.	.	.	.	.
8r	.	8B-\J	.	.	.	.	.	8dd-\J	.	8r	8AA-/J	.	.	.	.	.	.	.
*Xrep	*	*	*	*	*	*	*	*	*	*Xrep	*Xrep	*	*	*	*	*Xrep	*	*
=22	=22	=22	=22	=22	=22	=22	=22	=22	=22	=22	=22	=22	=22	=22	=22	=22	=22	=22
*	*	*	*	*	*	*	*	*	*	*rep	*rep	*	*	*	*	*rep	*	*
*rep	*	*	*	*	*	*	*	*	*	*	*ped	*	*	*	*	*	*	*
4AA-/	.	(4.B-\	.	(>2.G-/]	.	(>2.e-/]	.	(4.dd-\	.	4AAA-/	8r	.	2.r	2.r	.	2.E-\] 2.G-]	2.r	.
.	.	.	.	.	.	.	.	.	.	.	8AA-^/L	.	.	.	.	.	.	.
8r	.	.	.	.	.	.	.	.	.	8r	8E-/J	.	.	.	.	.	.	.
4r	.	4A-\)	.	.	.	.	.	4cc\)	.	4r	8G-^/L	.	.	.	.	.	.	.
.	.	.	.	.	.	.	.	.	.	.	8E-/	.	.	.	.	.	.	.
8r	.	8ryy	.	.	.	.	.	8ee-\	.	8r	8AA-/J	.	.	.	.	.	.	.
*Xrep	*	*	*	*	*	*	*	*	*	*Xrep	*Xrep	*	*	*	*	*Xrep	*	*
*	*	*	*	*	*	*	*	*	*	*	*Xped	*	*	*	*	*	*	*
=23	=23	=23	=23	=23	=23	=23	=23	=23	=23	=23	=23	=23	=23	=23	=23	=23	=23	=23
*	*	*	*	*	*	*	*	*	*	*	*	*	*	*	*	*^	*	*
*	*	*	*	*	*	*	*	*	*	*	*ped	*	*	*ped	*	*	*	*	*
!LO:TX:a:t=arco:rj	!LO:DY:rj	!	!LO:DY:rj	!	!LO:HP:a	!	!	!	!	!	!	!	!	!	!	!	!	!	!LO:HP:b=2
!	!LO:HP:a	!	!	!	!	!	!	!	!	!	!	!	!	!	!	!	!	!	!
(4.AA-/	pp <	(4.c\	pp <	[4.E-/)	<	[4.g-/)	<	(4gg-\	<	4.AA-/	8r	<	2.ryy	2.ryy	.	2.G-/	4.E-\	2.r	<
.	.	.	.	.	.	.	.	.	.	.	(8E-\L	.	.	.	.	.	.	.	.
*	*	*	*	*	*	*	*	*	*	*	*Xped	*	*	*Xped	*	*	*	*	*
.	.	.	.	.	.	.	.	8ee-\	.	.	8A-\J	.	.	.	.	.	.	.	.
*	*	*	*	*	*	*	*	*	*	*	*ped	*	*	*ped	*	*	*	*	*
!	!LO:HP:a	!	!	!	!LO:HP:a	!	!	!	!	!	!	!	!	!	!	!	!	!	!LO:HP:b=2
4.BB--/	[ > ]]	4.d-\	[ > ]]	4.E-/_	[ > ]]	4.g-/_	[ > ]]	4g-/)	[ >	4BB--^/	8B--\L	[ sf	.	.	.	.	4.D-\	.	[ >
.	.	.	.	.	.	.	.	.	.	.	8E-\)	.	.	.	.	.	.	.	.
*	*	*	*	*	*	*	*	*	*	*	*Xped	*	*	*Xped	*	*	*	*	*
.	.	.	.	.	.	.	.	8dd-\	]]	8r	8BB--\J	.	.	.	.	.	.	.	.
=24	=24	=24	=24	=24	=24	=24	=24	=24	=24	=24	=24	=24	=24	=24	=24	=24	=24	=24	=24
*	*	*	*	*	*	*	*	*	*	*rep	*rep	*	*	*	*	*	*	*	*
*rep	*	*	*	*	*	*	*	*	*	*	*ped	*	*	*ped	*	*	*	*	*
!	!LO:HP:a	!	!	!	!LO:HP:a	!	!	!	!	!	!	!	!	!	!	!	!	!	!LO:HP:b=2
4.AA-/	<	4.c\	<	4.E-/_	<	4.g-/]	<	(4gg-\	<	4.AA-/	8r	<	2.ryy	2.ryy	.	2.G-/	4.E-\	2.ryy	] <
.	.	.	.	.	.	.	.	.	.	.	(8E-\L	.	.	.	.	.	.	.	.
*	*	*	*	*	*	*	*	*	*	*	*Xped	*	*	*Xped	*	*	*	*	*
.	.	.	.	.	.	.	.	8ee-\	.	.	8A-\J	.	.	.	.	.	.	.	.
*	*	*	*	*	*	*	*	*	*	*	*ped	*	*	*ped	*	*	*	*	*
!	!LO:HP:a	!	!	!	!LO:HP:a	!	!	!	!	!	!	!	!	!	!	!	!	!	!LO:HP:b=2
4.BB--/)	[ > ]]	4.d-\)	[ > ]]	4.E-/]	[ > ]]	[4.g-/	[ > ]]	4g-/)	[ >	4BB--^/	8B--\L	[ sfy	.	.	.	.	4.D-\	.	[ >
.	.	.	.	.	.	.	.	.	.	.	8E-\)	.	.	.	.	.	.	.	.
*	*	*	*	*	*	*	*	*	*	*	*Xped	*	*	*Xped	*	*	*	*	*
.	.	.	.	.	.	.	.	8dd-\	]]	8r	8BB--\J	.	.	.	.	.	.	.	.
*Xrep	*	*	*	*	*	*	*	*	*	*Xrep	*Xrep	*	*	*	*	*	*	*	*
*	*	*	*	*	*	*	*	*	*	*	*	*	*	*	*	*v	*v	*	*
!!LO:PB:g=original
=25	=25	=25	=25	=25	=25	=25	=25	=25	=25	=25	=25	=25	=25	=25	=25	=25	=25	=25
*	*	*clefF4	*	*	*	*	*	*	*	*	*	*	*	*	*	*	*	*
(4.AA-/	.	(<4.AA-/	.	4.c^\	.	8g-/]	.	4gg-\	.	4.AA-/	8r	.	2.ryy	2.ryy	.	4E-\ 4G-	2.r	]
!	!	!	!	!	!	!LO:TX:t=P:problem:mixed beam	!	!	!	!	!	!	!	!	!	!	!	!
.	.	.	.	.	.	(8g-^</L	.	.	.	.	(8E-\L	.	.	.	.	.	.	.
.	.	.	.	.	.	8ee-\J)	.	[8gg-^\	.	.	8A-^\J)	.	.	.	.	8r	.	.
!	!	!LO:TX:b:t=col CB.	!	!	!	!	!	!	!LO:HP:t=crescendo	!	!	!	!	!	!	!	!	!
4.BB--/	.	4.BB--/yy	.	4.d-^\	.	8r	.	4gg-\]	<	4.BB--/	8r	.	.	.	.	4r	.	.
!	!	!	!	!	!	!LO:TX:t=P:problem:mixed beam	!	!	!	!	!	!	!	!	!	!	!	!
.	.	.	.	.	.	(8g-^</L	.	.	.	.	(8E-\L	.	.	.	.	.	.	.
.	.	.	.	.	.	8ee-\J)	.	[8gg-^\	.	.	8B--^\J)	.	.	.	.	8r	.	.
=26	=26	=26	=26	=26	=26	=26	=26	=26	=26	=26	=26	=26	=26	=26	=26	=26	=26	=26
!	!	!	!	!	!	!	!	!	!	!LO:N:acc=n-	!	!	!	!	!	!	!	!
4.BB-X/	.	4.BB-X/yy	.	4.dn^\	.	8r	.	4gg-\]	.	4.BB-X/	8r	.	2.ryy	2.ryy	.	2.r	2.r	.
!	!	!	!	!	!	!LO:TX:t=P:problem:mixed beam	!	!	!	!	!	!	!	!	!	!	!	!
.	.	.	.	.	.	(8g-^</L	.	.	.	.	(8E-\L	.	.	.	.	.	.	.
!	!	!	!	!	!	!	!	!	!	!	!LO:N:acc=n-	!	!	!	!	!	!	!
.	.	.	.	.	.	8een\J)	.	8gg-^\	.	.	8B-X^\J)	.	.	.	.	.	.	.
4.C-X/)	.	4.C-X/)yy	.	(4f\	.	8r	.	(4ff^\	.	4.C-X/	8r	.	.	.	.	.	.	.
.	.	.	.	.	.	(8a-/L	.	.	.	.	(8E-\L	.	.	.	.	.	.	.
.	.	.	.	8e-\)	.	8A-/J)	.	8ee-\)	.	.	8c-X^\J)	.	.	.	.	.	.	.
!!LO:TX:t=P:problem:barlines.color=red
=27	=27	=27	=27	=27	=27	=27	=27	=27	=27	=27	=27	=27	=27	=27	=27	=27	=27	=27
*	*	*	*	*	*	*	*	*	*	*	*	*	*	*	*	*^	*	*
!	!	!	!	!	!	!	!	!	!LO:DY:rj	!	!	!	!	!	!	!	!	!LO:TX:a:t=A:color=red	!LO:DY:rj
(4.Cn/	.	(4.Cn/yy	.	(4.E-/	pp	(4A-^/	.	(4a-/	pp	4Cn/	8r	.	2.ryy	2.ryy	.	(>2.AA-/	4.EE-\	2.r	pp
.	.	.	.	.	.	.	.	.	.	.	(8E-\L	.	.	.	.	.	.	.	.
.	.	.	.	.	.	8a-/	.	8aa-\	.	8r	8cn\J)	.	.	.	.	.	.	.	.
4.D-\	.	4.D-\yy	.	4.F/	.	8f/L	.	8ff\L	.	4D-\	8r	.	.	.	.	.	4.FF\	.	.
.	.	.	.	.	.	8e-/)	.	8ee-\)	.	.	(8F\L	.	.	.	.	.	.	.	.
.	.	.	.	.	.	8d-/J	.	8dd-\J	.	8r	8A-\J)	.	.	.	.	.	.	.	.
*	*	*	*	*	*	*	*	*	*	*	*	*	*	*	*	*v	*v	*	*
=28	=28	=28	=28	=28	=28	=28	=28	=28	=28	=28	=28	=28	=28	=28	=28	=28	=28	=28
!LO:TX:b:t=cres---cen---do:problem:dynamics with extention lines	!LO:HP:t=cres---cen---do.:ext=cd	!LO:TX:b:t=cres---cen---do:problem:dynamics with extention lines	!LO:HP:t=cres---cen---do:ext=cd	!	!	!	!	!	!	!	!LO:TX:b:t=cres---cen---do:problem:dynamics with extention lines	!LO:HP:t=cres---cen---do:ext=cd	!	!	!	!	!	!
4.E-\	<	4.E-\yy	<	4.G-/	.	4.c/	.	(4.a-/	.	4E-\	(8G-^\L	<	2.ryy	2.ryy	.	(>4.GG-/)	2.r	.
.	.	.	.	.	.	.	.	.	.	.	8A-\	.	.	.	.	.	.	.
.	.	.	.	.	.	.	.	.	.	8r	8c\J)	.	.	.	.	.	.	.
!	!	!	!	!LO:TX:b:t=cres---do:problem:dynamics with extention lines	!LO:HP:t=cres---do.:ext=cd	!	!	!LO:TX:b:t=cres--cen--do:problem:dynamics with extention lines	!LO:HP:t=cres--cen--do:ext=cd	!	!	!	!	!	!	!LO:TX:b:t=cres--cen--do.:problem:dynamics with extention lines	!	!LO:HP:b=2:t=cres--cen--do.:ext=cd
4.F\	.	4.F\yy	.	4.A-/)	<	4.d-/	.	8dd-\)	<	4F\	(8A-^\L	.	.	.	.	4.AA-/	.	<
.	.	.	.	.	.	.	.	8r	.	.	8B-\	.	.	.	.	.	.	.
.	.	.	.	.	.	.	.	8dd-\	.	8r	8d-\J)	.	.	.	.	.	.	.
=29	=29	=29	=29	=29	=29	=29	=29	=29	=29	=29	=29	=29	=29	=29	=29	=29	=29	=29
4.G-\	.	4.G-\yy	.	(4.B-/	.	(4d-^/	.	(4dd-\	.	4G-\	(8B-^\L	.	2.ryy	2.ryy	.	4.BB-/	2.r	.
.	.	.	.	.	.	.	.	.	.	.	8d-\	.	.	.	.	.	.	.
.	.	.	.	.	.	8dd-\	.	8ddd-\	.	8r	8e-\J)	.	.	.	.	.	.	.
4.A-\	.	4.A-\yy	.	4.c-X/	[[	8cc-X\L	.	8ccc-X\L	.	4G-\	(8c-X^\L	.	.	.	.	4.C-X/	.	.
.	.	.	.	.	.	8b-\)	.	8bb-\)	.	.	8d-\	.	.	.	.	.	.	.
.	.	.	.	.	.	8a-\J	.	8aa-\J	.	8r	8f\J)	.	.	.	.	.	.	.
=30	=30	=30	=30	=30	=30	=30	=30	=30	=30	=30	=30	=30	=30	=30	=30	=30	=30	=30
4.An\	.	4.An\yy	.	4.cn^\	.	4.e-^/	.	(4.aa-\	.	4An\	(8cn^\L	.	2.ryy	2.ryy	.	(4.Cn/	2.r	.
.	.	.	.	.	.	.	.	.	.	.	8e-\	[	.	.	.	.	.	.
.	.	.	.	.	.	.	.	.	.	8r	8c\J)	.	.	.	.	.	.	.
4.B-\)	[	4.B-\)yy	[	4.d-\)	.	8g-/	.	8gg-\)	.	4B-\	(8d-^\L	.	.	.	.	4.D-/))	.	[
.	.	.	.	.	.	8r	.	8r	[	.	8g-\	.	.	.	.	.	.	.
.	.	.	.	.	.	8r	.	[8gg-\	.	8r	8G-\J)	.	.	.	.	.	.	.
!!LO:PB:g=original
=31	=31	=31	=31	=31	=31	=31	=31	=31	=31	=31	=31	=31	=31	=31	=31	=31	=31	=31
*	*	*	*	*	*	*	*	*	*	*	*	*	*	*	*	*^	*	*
!	!	!	!LO:DY:rj	!	!LO:DY:rj	!	!	!	!	!	!	!	!	!	!	!	!	!	!LO:DY:rj:b=2
4.c-\	.	4.G-\	f	(8cc-X\L	f	4.e-/	f	8gg-^>\L]	f <	4.E-\	(8c-X\L	f	2.r	2.r	.	4.G-/	2.E-\	2.r	f
.	.	.	.	8b-\	.	.	.	(16aa-\L	.	.	8e-\	.	.	.	.	.	.	.	.
.	.	.	.	.	.	.	.	16gg-\	.	.	.	.	.	.	.	.	.	.	.
.	.	.	.	8b--\J	.	.	.	16ff\	.	.	8G-\J)	.	.	.	.	.	.	.	.
.	.	.	.	.	.	.	.	16gg-\JJ)	.	.	.	.	.	.	.	.	.	.	.
!	!	!	!	!	!	!	!	!	!	!	!	!	!	!	!	!	!	!	!LO:HP:b=2
4.cn\	.	4.A-\	.	8a-\L	.	4e-/	.	(4aa-\	[ >	4.E-\	(8A-\L	.	.	.	.	[>4.A-/	.	.	>
.	.	.	.	8gn\	.	.	.	.	.	.	8e-\	.	.	.	.	.	.	.	.
.	.	.	.	8g-X\J)	.	[8a-/	.	8ee-\)	]]	.	8A-\J)	.	.	.	.	.	.	.	.
*	*	*	*	*	*	*	*	*	*	*	*	*	*	*	*	*v	*v	*	*
=32	=32	=32	=32	=32	=32	=32	=32	=32	=32	=32	=32	=32	=32	=32	=32	=32	=32	=32
4.d-\	.	4.A-\	>	(8f\L	>	8a-/]	.	8ff~\L	<	4D-\	(8f\L	.	2.r	2.r	.	(4.A-\]	2.r	.
.	.	.	.	16e-'\L	.	4a-/	.	(16gg-\L	.	.	16e-'\L	>	.	.	.	.	.	.
.	.	.	.	16d-'\	.	.	.	16ff\	.	.	16d-'\	.	.	.	.	.	.	.
.	.	.	.	16c'\	.	.	.	16ee-\	.	8r	16c'\	.	.	.	.	.	.	.
.	.	.	.	16c-X'\JJ	.	.	.	16ff\JJ)	.	.	16c-X'\JJ	.	.	.	.	.	.	.
4.G-\	.	4.G-\	.	(8B-^/L	.	(8g-/L	.	(4gg-\	[ >	4GG-/	(8B-\L)	.	.	.	.	8B-\L	.	.
.	.	.	.	8A-/)	]	8a-/	.	.	.	.	8A-\	.	.	.	.	8A-\	.	.
.	.	.	]]	8G-/J)	.	8d-/J)	.	8b-\)	]]	8r	8G-\J)	]]	.	.	.	8G-\J)	.	]
=33	=33	=33	=33	=33	=33	=33	=33	=33	=33	=33	=33	=33	=33	=33	=33	=33	=33	=33
!	!	!	!	!	!LO:DY:rj	!	!	!	!LO:DY:rj	!	!	!	!	!	!	!	!	!LO:DY:rj:b=2
4.A-\	p	4.A-\	p	16F^/LL	p	8d-'/	p	8dd-\L	p	4AA-/	(16F\LL	p	2.r	2.r	.	4D-\ 4F	2.r	p
.	.	.	.	16A-'/	.	.	.	.	.	.	16A-'\	.	.	.	.	.	.	.
.	.	.	.	16d-'/	.	16d-/LL	.	16ee-\L	.	.	16d-'\	.	.	.	.	.	.	.
.	.	.	.	16f'/J	.	16f/J	.	16dd-\	.	.	16f'\J	.	.	.	.	.	.	.
.	.	.	.	([8a-^/J	.	[8a-^/J	.	16cc\	.	8r	8a-^\J)	.	.	.	.	8A-\	.	.
.	.	.	.	.	.	.	.	16dd-\JJ	.	.	.	.	.	.	.	.	.	.
4E-\	.	4E-\	.	8a-\L]	.	8a-/L]	.	4ee-\	.	4EE-/ 4E-	(8B-^\L	.	.	.	.	4B-^\	.	.
.	.	.	.	8gn\)	.	8gn/	.	.	.	.	8e-\	.	.	.	.	.	.	.
8A-\	.	8A-\	.	8g-X\J	.	8g-X/J	.	8a-/	.	8AA-/	8A-\J)	.	.	.	.	8A-\	.	.
*	*	*	*	*	*	*	*	*	*	*	*clefG2	*	*	*	*	*	*	*
=34	=34	=34	=34	=34	=34	=34	=34	=34	=34	=34	=34	=34	=34	=34	=34	=34	=34	=34
!LO:TX:b:t=1mo	!	!	!	!	!	!	!	!	!	!LO:TX:t=P:problem:mixed beam	!	!LO:DY:a:t=pp.	!	!	!	!	!LO:TX:a:t=1. mo	!
*>A1	*	*>A1	*	*>A1	*	*>A1	*	*>A1	*	*>A1	*>A1	*	*>A1	*>A1	*	*>A1	*>A1	*
2.D-\	.	2.D-\	.	(16f\LL	.	(>16f/LL	.	[4.ff\	.	8A-^\L	(16f/LL	pp	2.r	2.r	.	[4.A-\	2.r	.
.	.	.	.	16g-\	.	16g-/	.	.	.	.	16g-/	.	.	.	.	.	.	.
.	.	.	.	16b-\	.	16b-/	.	.	.	8AA-/	16b-/	.	.	.	.	.	.	.
.	.	.	.	16a-\	.	16a-/	.	.	.	.	16a-/	.	.	.	.	.	.	.
.	.	.	.	16g-\	.	16g-/	.	.	.	8D-/J	16g-/	.	.	.	.	.	.	.
.	.	.	.	16f\JJ	.	16f/JJ	.	.	.	.	16f/JJ	.	.	.	.	.	.	.
.	.	.	.	16e-/LL	.	16e-/LL	.	8ff\L]	.	8A-\L	16e-/LL	.	.	.	.	8A-\]	.	.
.	.	.	.	16d-/	.	16d-/	.	.	.	.	16d-/	.	.	.	.	.	.	.
.	.	.	.	16c/	.	16c/	.	8.ee-\	.	8D-\	16c/	.	.	.	.	8r	.	.
.	.	.	.	16B-/	.	16B-/	.	.	.	.	16B-/	.	.	.	.	.	.	.
.	.	.	.	16A-/	.	16A-/	.	.	.	8AA-\J	16A-/	.	.	.	.	8r	.	.
.	.	.	.	16f/JJ)	.	16f/JJ)	.	16dd-\Jk	.	.	16f/JJ)	.	.	.	.	.	.	.
=35:|!	=35:|!	=35:|!	=35:|!	=35:|!	=35:|!	=35:|!	=35:|!	=35:|!	=35:|!	=35:|!	=35:|!	=35:|!	=35:|!	=35:|!	=35:|!	=35:|!	=35:|!	=35:|!
!LO:TX:b:t=2do	!	!	!	!	!	!	!	!	!	!LO:TX:t=P:problem:mixed beam	!LO:TX:a:t=Solo.	!	!	!	!	!	!LO:TX:a:t=2do	!
*>A2	*	*>A2	*	*>A2	*	*>A2	*	*>A2	*	*>A2	*>A2	*	*>A2	*>A2	*	*>A2	*>A2	*
*	*	*	*	*2\right	*	*	*	*	*	*	*	*	*	*	*	*	*	*
!	!	!	!	!	!LO:DY:t=pp.	!	!LO:DY:t=pp.	!	!LO:DY:t=pp.	!	!	!	!	!	!	!	!	!
[>2.D-\	.	[>2.D-\	.	[2.d-\	pp	[>2.f/	pp	[>2.a-/	pp	8A-^\L	16f^/LL	.	2.r	2.r	.	[4.A-\	2.ryy	.
.	.	.	.	.	.	.	.	.	.	.	16g-/	.	.	.	.	.	.	.
.	.	.	.	.	.	.	.	.	.	8AA-/	16b-/	.	.	.	.	.	.	.
.	.	.	.	.	.	.	.	.	.	.	16a-/	.	.	.	.	.	.	.
.	.	.	.	.	.	.	.	.	.	8D-/J	16g-/	.	.	.	.	.	.	.
.	.	.	.	.	.	.	.	.	.	.	16f/JJ	.	.	.	.	.	.	.
.	.	.	.	.	.	.	.	.	.	8A-\L	16e-/LL	.	.	.	.	8A-\]	.	.
.	.	.	.	.	.	.	.	.	.	.	16d-/	.	.	.	.	.	.	.
.	.	.	.	.	.	.	.	.	.	8D-\	16c/	.	.	.	.	4ryy	.	.
.	.	.	.	.	.	.	.	.	.	.	16B-/	.	.	.	.	.	.	.
.	.	.	.	.	.	.	.	.	.	8AA-\J	16A-/	.	.	.	.	.	.	.
.	.	.	.	.	.	.	.	.	.	.	16f/JJ	.	.	.	.	.	.	.
=36	=36	=36	=36	=36	=36	=36	=36	=36	=36	=36	=36	=36	=36	=36	=36	=36	=36	=36
*>B	*	*>B	*	*>B	*	*>B	*	*>B	*	*>B	*>B	*	*>B	*>B	*	*>B	*>B	*
*	*	*	*	*	*	*	*	*	*	*rep	*	*	*	*	*	*	*	*
!	!	!	!	!	!	!	!	!	!	!LO:TX:t=P:problem:mixed beam	!	!	!	!LO:TX:a:t=Solo:rj	!	!	!	!
2.D-\_>	.	2.D-\_>	.	(2.d-\]	.	2.f/_>	.	2.a-/_>	.	8A-^\L	2.f/	.	2.r	(>16dd-^\LL	.	2.ryy	2.ryy	.
.	.	.	.	.	.	.	.	.	.	.	.	.	.	16ee-\	.	.	.	.
.	.	.	.	.	.	.	.	.	.	8AA-/	.	.	.	16gg-\	.	.	.	.
.	.	.	.	.	.	.	.	.	.	.	.	.	.	16ff\	.	.	.	.
.	.	.	.	.	.	.	.	.	.	8D-/J	.	.	.	16ee-\	.	.	.	.
.	.	.	.	.	.	.	.	.	.	.	.	.	.	16dd-\JJ	.	.	.	.
.	.	.	.	.	.	.	.	.	.	8A-\L	.	.	.	16cc/LL	.	.	.	.
.	.	.	.	.	.	.	.	.	.	.	.	.	.	16b-/	.	.	.	.
.	.	.	.	.	.	.	.	.	.	8D-\	.	.	.	16a-/	.	.	.	.
.	.	.	.	.	.	.	.	.	.	.	.	.	.	16g-/	.	.	.	.
.	.	.	.	.	.	.	.	.	.	8AA-\J	.	.	.	16f/	.	.	.	.
.	.	.	.	.	.	.	.	.	.	.	.	.	.	16dd-/JJ)	.	.	.	.
*	*	*	*	*	*	*	*	*	*	*Xrep	*	*	*	*	*	*	*	*
!!LO:PB:g=original
=37	=37	=37	=37	=37	=37	=37	=37	=37	=37	=37	=37	=37	=37	=37	=37	=37	=37	=37
*	*	*	*	*	*	*	*	*	*	*	*	*	*	*2\right	*	*	*	*
!	!	!	!	!	!	!	!	!	!	!LO:TX:t=P:problem:mixed beam	!	!	!	!	!	!	!	!
2.D-^\_>	.	2.D-^\_>	.	[2.A-/)	.	2.f^/_>	.	2.a-^/_>	.	8A-\L	16f/LL	.	2.ryy	2.dd-\	.	2.r	2.r	.
.	.	.	.	.	.	.	.	.	.	.	16g-/	.	.	.	.	.	.	.
.	.	.	.	.	.	.	.	.	.	8AA-/	16b-/	.	.	.	.	.	.	.
.	.	.	.	.	.	.	.	.	.	.	16a-/	.	.	.	.	.	.	.
.	.	.	.	.	.	.	.	.	.	8D-/J	16g-/	.	.	.	.	.	.	.
.	.	.	.	.	.	.	.	.	.	.	16f/JJ	.	.	.	.	.	.	.
!	!	!	!	!	!	!	!	!	!	!LO:TX:t=P:problem:mixed beam	!	!	!	!	!	!	!	!
.	.	.	.	.	.	.	.	.	.	8A-\L	16e-/LL	.	.	.	.	.	.	.
.	.	.	.	.	.	.	.	.	.	.	16d-/	.	.	.	.	.	.	.
.	.	.	.	.	.	.	.	.	.	8D-\	16c/	.	.	.	.	.	.	.
.	.	.	.	.	.	.	.	.	.	.	16B-/	.	.	.	.	.	.	.
.	.	.	.	.	.	.	.	.	.	8AA-/J	16A-/	.	.	.	.	.	.	.
.	.	.	.	.	.	.	.	.	.	.	16f/JJ	.	.	.	.	.	.	.
=38	=38	=38	=38	=38	=38	=38	=38	=38	=38	=38	=38	=38	=38	=38	=38	=38	=38	=38
*	*	*	*	*	*	*	*	*	*	*rep	*	*	*	*	*	*	*	*
!	!	!	!	!	!	!	!	!	!	!LO:TX:t=P:problem:mixed beam	!	!	!	!	!	!	!	!
2.D-\_>	.	2.D-\_>	.	2.A-/]	.	4.f/_<	.	2.a-/]	.	8A-\L	4f/	.	2.ryy	(16a-/LL	.	2.r	2.r	.
.	.	.	.	.	.	.	.	.	.	.	.	.	.	16b-/	.	.	.	.
.	.	.	.	.	.	.	.	.	.	8AA-/	.	.	.	16dd-/	.	.	.	.
.	.	.	.	.	.	.	.	.	.	.	.	.	.	16cc-X/	.	.	.	.
.	.	.	.	.	.	.	.	.	.	8D-/J	8r	.	.	16b-/	.	.	.	.
.	.	.	.	.	.	.	.	.	.	.	.	.	.	16a-/JJ	.	.	.	.
!	!	!	!	!	!	!	!	!	!	!LO:TX:t=P:problem:mixed beam	!	!	!	!	!	!	!	!
.	.	.	.	.	.	4f/]	.	.	.	8A-\L	4r	.	.	16g-/LL	.	.	.	.
.	.	.	.	.	.	.	.	.	.	.	.	.	.	16f/	.	.	.	.
.	.	.	.	.	.	.	.	.	.	8D-\	.	.	.	16e-/	.	.	.	.
.	.	.	.	.	.	.	.	.	.	.	.	.	.	16d-/	.	.	.	.
.	.	.	.	.	.	8d-/	.	.	.	8AA-/J	8r	.	.	16c-X/	.	.	.	.
.	.	.	.	.	.	.	.	.	.	.	.	.	.	16a-/JJ)	.	.	.	.
*	*	*	*	*	*	*	*	*	*	*Xrep	*	*	*	*	*	*	*	*
=39	=39	=39	=39	=39	=39	=39	=39	=39	=39	=39	=39	=39	=39	=39	=39	=39	=39	=39
2.D-^\_>	.	2.D-^\_>	.	[2.F^/	.	[4.c-X/	.	[4.a-/	.	[4D-\	16d-/LL	.	2.ryy	4a-\ 4aa-	.	2.r	2.r	.
.	.	.	.	.	.	.	.	.	.	.	16e-/	.	.	.	.	.	.	.
.	.	.	.	.	.	.	.	.	.	.	16f/	.	.	.	.	.	.	.
.	.	.	.	.	.	.	.	.	.	.	16e-/	.	.	.	.	.	.	.
!	!	!	!	!	!	!	!	!	!	!LO:TX:t=P:problem:mixed beam	!	!	!	!	!	!	!	!
.	.	.	.	.	.	.	.	.	.	16D-\LL]	16d-/	.	.	(16dd-\LL	.	.	.	.
.	.	.	.	.	.	.	.	.	.	16AA-/JJ	16A-/JJ	.	.	16ddd-\JJ)	.	.	.	.
*	*	*	*	*	*	*	*	*	*	*rep	*rep	*	*	*	*	*	*	*
.	.	.	.	.	.	4c-/]	.	4a-/]	.	[4D-\	16d-/LL	.	.	[>4.dd-\ [>4.ddd-	.	.	.	.
.	.	.	.	.	.	.	.	.	.	.	16e-/	.	.	.	.	.	.	.
.	.	.	.	.	.	.	.	.	.	.	16f/	.	.	.	.	.	.	.
.	.	.	.	.	.	.	.	.	.	.	16e-/	.	.	.	.	.	.	.
!	!	!	!	!	!	!	!	!	!	!LO:TX:t=P:problem:mixed beam	!	!	!	!	!	!	!	!
.	.	.	.	.	.	(16A-^/LL	.	(16c-X^>/LL	.	16D-\LL]	16d-/	.	.	.	.	.	.	.
.	.	.	.	.	.	16c-/JJ)	.	16a-/JJ)	.	16AA-/JJ	16A-/JJ	.	.	.	.	.	.	.
*	*	*	*	*	*	*	*	*	*	*Xrep	*Xrep	*	*	*	*	*	*	*
=40	=40	=40	=40	=40	=40	=40	=40	=40	=40	=40	=40	=40	=40	=40	=40	=40	=40	=40
*	*	*	*	*	*	*	*	*	*	*rep	*rep	*	*	*	*	*	*	*
2.D-^\_>	.	2.D-^\_>	.	2.F^/]	.	[4.c-X/	.	[4.a-/	.	[4D-\	16d-/LL	.	2.ryy	4dd-\] 4ddd-]	.	2.r	2.r	.
.	.	.	.	.	.	.	.	.	.	.	16e-/	.	.	.	.	.	.	.
.	.	.	.	.	.	.	.	.	.	.	16f/	.	.	.	.	.	.	.
.	.	.	.	.	.	.	.	.	.	.	16e-/	.	.	.	.	.	.	.
!	!	!	!	!	!	!	!	!	!	!LO:TX:t=P:problem:mixed beam	!	!	!	!	!	!	!	!
.	.	.	.	.	.	.	.	.	.	16D-\LL]	16d-/	.	.	(16dd-\LL	.	.	.	.
.	.	.	.	.	.	.	.	.	.	16AA-/JJ	16A-/JJ	.	.	16ddd-\JJ)	.	.	.	.
*	*	*	*	*	*	*	*	*	*	*Xrep	*Xrep	*	*	*	*	*	*	*
*	*	*	*	*	*	*	*	*	*	*rep	*rep	*	*	*	*	*	*	*
.	.	.	.	.	.	4c-/]	.	4a-/]	.	[4D-\	16d-/LL	.	.	[>4.dd-\ [>4.ddd-	.	.	.	.
.	.	.	.	.	.	.	.	.	.	.	16e-/	.	.	.	.	.	.	.
.	.	.	.	.	.	.	.	.	.	.	16f/	.	.	.	.	.	.	.
.	.	.	.	.	.	.	.	.	.	.	16e-/	.	.	.	.	.	.	.
!	!	!	!	!	!	!	!	!	!	!LO:TX:t=P:problem:mixed beam	!	!	!	!	!	!	!	!
.	.	.	.	.	.	(16A-/LL	.	(16c-X^>/LL	.	16D-\LL]	16d-/	.	.	.	.	.	.	.
.	.	.	.	.	.	16c-/JJ)	.	16a-/JJ)	.	16AA-/JJ	16A-/JJ	.	.	.	.	.	.	.
*	*	*	*	*	*	*	*	*	*	*Xrep	*Xrep	*	*	*	*	*	*	*
=41	=41	=41	=41	=41	=41	=41	=41	=41	=41	=41	=41	=41	=41	=41	=41	=41	=41	=41
*	*	*	*	*	*	*	*	*	*	*	*ped	*	*	*	*	*	*	*
!	!	!	!	!	!	!	!	!	!	!LO:TX:t=P:problem:2 dopisane takty	!	!	!	!	!	!	!	!
2.D-^\_>	.	2.D-\]	.	4.F/	.	(4.c-X/	.	(4.a-/	.	4D-\	(16d-/LL	.	2.ryy	4dd-\] 4ddd-]	.	2.r	2.r	.
.	.	.	.	.	.	.	.	.	.	.	16f/	.	.	.	.	.	.	.
.	.	.	.	.	.	.	.	.	.	.	16a-/	.	.	.	.	.	.	.
.	.	.	.	.	.	.	.	.	.	.	16f/	.	.	.	.	.	.	.
.	.	.	.	.	.	.	.	.	.	8r	16d-/	.	.	(16dd-\LL	.	.	.	.
.	.	.	.	.	.	.	.	.	.	.	16c/JJ	.	.	16ddd-\JJ	.	.	.	.
.	.	.	.	4.A-/	.	4.d-/	.	4.f/	.	4r	16c-X/LL	.	.	4aa-\)	.	.	.	.
.	.	.	.	.	.	.	.	.	.	.	16d-/	.	.	.	.	.	.	.
.	.	.	.	.	.	.	.	.	.	.	16f/	.	.	.	.	.	.	.
.	.	.	.	.	.	.	.	.	.	.	16d-/	.	.	.	.	.	.	.
.	.	.	.	.	.	.	.	.	.	8r	16c-/	.	.	(16a-\LL	.	.	.	.
.	.	.	.	.	.	.	.	.	.	.	16B-/JJ	.	.	16aa-\JJ	.	.	.	.
*	*	*	*	*	*	*	*	*	*	*	*clefF4	*	*	*	*	*	*	*
=42	=42	=42	=42	=42	=42	=42	=42	=42	=42	=42	=42	=42	=42	=42	=42	=42	=42	=42
2.D-\]	.	2.AA-/	.	4.F/	.	4.c-X/	.	4.a-/	.	2.r	16A-\LL	.	2.ryy	4dd-\)	.	2.r	2.r	.
.	.	.	.	.	.	.	.	.	.	.	16c-X\	.	.	.	.	.	.	.
.	.	.	.	.	.	.	.	.	.	.	16d-\	.	.	.	.	.	.	.
*	*	*	*	*	*	*	*	*	*	*	*Xped	*	*	*	*	*	*	*
.	.	.	.	.	.	.	.	.	.	.	16c-\	.	.	.	.	.	.	.
.	.	.	.	.	.	.	.	.	.	.	16A-\	.	.	(16dd-\LL	.	.	.	.
.	.	.	.	.	.	.	.	.	.	.	16F\JJ	.	.	16ddd-\JJ	.	.	.	.
.	.	.	.	4.E-/	.	4.cn/)	.	4g-/)	.	.	16G-\LL	.	.	4aa-\)	.	.	.	.
.	.	.	.	.	.	.	.	.	.	.	16A-\	.	.	.	.	.	.	.
.	.	.	.	.	.	.	.	.	.	.	16e-\	.	.	.	.	.	.	.
!	!	!	!	!	!	!	!	!	!	!	!LO:TX:a:t=P:problem:♮ above	!	!	!	!	!	!	!
.	.	.	.	.	.	.	.	.	.	.	16cn\	.	.	.	.	.	.	.
.	.	.	.	.	.	.	.	8ryy	.	.	16A-\	.	.	16a-\LL	.	.	.	.
.	.	.	.	.	.	.	.	.	.	.	16G-\JJ)	.	.	16aa-\JJ	.	.	.	.
!!LO:PB:g=original
=43	=43	=43	=43	=43	=43	=43	=43	=43	=43	=43	=43	=43	=43	=43	=43	=43	=43	=43
*	*	*	*	*	*	*	*	*	*	*	*ped	*	*	*ped	*	*	*	*
!	!	!	!	!	!	!	!	!	!	!	!	!	!	!	!	!	!	!LO:DY:t=pp.:rj
[2.D-\	.	[2.D-\	.	[4.D-/	.	[4.d-/	.	[4.f/	.	8r	(16F\LL	.	2.r	2.r	.	[>2.F\ [>2.A- [>2.d-	2.f\ 2.a- [2.dd- [2.ff	pp
.	.	.	.	.	.	.	.	.	.	.	16A-\	.	.	.	.	.	.	.
.	.	.	.	.	.	.	.	.	.	8r	16d-\	.	.	.	.	.	.	.
.	.	.	.	.	.	.	.	.	.	.	16A-\	.	.	.	.	.	.	.
.	.	.	.	.	.	.	.	.	.	8DD-/ 8AA-	16F\	.	.	.	.	.	.	.
.	.	.	.	.	.	.	.	.	.	.	16D-\JJ)	.	.	.	.	.	.	.
*	*	*	*	*	*	*	*	*	*	*	*rep	*	*	*	*	*	*	*
.	.	.	.	4D-/]	.	4d-/]	.	4f/]	.	4DD-/ 4AA-	(16F\LL	.	.	.	.	.	.	.
.	.	.	.	.	.	.	.	.	.	.	16A-\	.	.	.	.	.	.	.
.	.	.	.	.	.	.	.	.	.	.	16d-\	.	.	.	.	.	.	.
.	.	.	.	.	.	.	.	.	.	.	16A-\	.	.	.	.	.	.	.
.	.	.	.	8r	.	8r	.	8r	.	8DD-/ 8AA-	16F\	.	.	.	.	.	.	.
.	.	.	.	.	.	.	.	.	.	.	16D-\JJ)	.	.	.	.	.	.	.
*	*	*	*	*	*	*	*	*	*	*	*Xrep	*	*	*	*	*	*	*
=44	=44	=44	=44	=44	=44	=44	=44	=44	=44	=44	=44	=44	=44	=44	=44	=44	=44	=44
*rep	*	*	*	*	*	*	*	*	*	*	*rep	*	*	*	*	*rep	*rep	*
2.D-\_	.	2.D-\_	.	2.ryy	.	2.ryy	.	2.ryy	.	4DD-/ 4AA-	(16F\LL	.	8r	8r	.	2.F\_> 2.A-_> 2.d-_>	[>2.f\ [>2.a- 2.dd-_> 2.ff_>	.
.	.	.	.	.	.	.	.	.	.	.	16A-\	.	.	.	.	.	.	.
.	.	.	.	.	.	.	.	.	.	.	16d-\	.	8r	8r	.	.	.	.
.	.	.	.	.	.	.	.	.	.	.	16A-\	.	.	.	.	.	.	.
!	!	!	!	!	!	!	!	!	!	!	!	!	!	!	!LO:DY:t=pp.:rj	!	!	!
.	.	.	.	.	.	.	.	.	.	8r	16F\	.	8f/ 8a-	(8dd-'\ 8ff	pp	.	.	.
.	.	.	.	.	.	.	.	.	.	.	16D-\JJ)	.	.	.	.	.	.	.
*	*	*	*	*	*	*	*	*	*	*	*Xrep	*	*	*	*	*	*	*
*	*	*	*	*	*	*	*	*	*	*	*rep	*	*	*	*	*	*	*
.	.	.	.	.	.	.	.	.	.	4r	(16F\LL	.	4f/ 4a-	4dd-'\ 4ff	.	.	.	.
.	.	.	.	.	.	.	.	.	.	.	16A-\	.	.	.	.	.	.	.
.	.	.	.	.	.	.	.	.	.	.	16d-\	.	.	.	.	.	.	.
.	.	.	.	.	.	.	.	.	.	.	16A-\	.	.	.	.	.	.	.
.	.	.	.	.	.	.	.	.	.	8r	16F\	.	8f/ 8a-	8dd-'\) 8ff	.	.	.	.
.	.	.	.	.	.	.	.	.	.	.	16D-\JJ)	.	.	.	.	.	.	.
*Xrep	*	*	*	*	*	*	*	*	*	*	*Xrep	*	*	*	*	*Xrep	*Xrep	*
=45	=45	=45	=45	=45	=45	=45	=45	=45	=45	=45	=45	=45	=45	=45	=45	=45	=45	=45
!	!	!	!	!	!	!	!	!	!	!	!LO:TX:t=P:problem:mixed beam	!	!	!	!	!	!	!
8D-\]	.	8D-\]	.	2.ryy	.	2.ryy	.	2.ryy	.	2.ryy	16A-\LL	.	16f/ 16a-	16dd-\ 16ff	.	8F\] 8A-] 8d-]	8f\] 8a-] 8dd-] 8ff]	.
.	.	.	.	.	.	.	.	.	.	.	(16AA-/	.	16r	(16A-/LL	.	.	.	.
8r	.	8r	.	.	.	.	.	.	.	.	16BB-/	.	8r	16B-/	.	8r	8r	.
.	.	.	.	.	.	.	.	.	.	.	16C/	.	.	16c/	.	.	.	.
8r	.	8r	.	.	.	.	.	.	.	.	16D-/	.	8r	16d-/	.	8r	8r	.
.	.	.	.	.	.	.	.	.	.	.	16E-/JJ	.	.	16e-/JJ	.	.	.	.
4r	.	4r	.	.	.	.	.	.	.	.	16F\LL	.	4r	16f/LL	.	4r	4r	.
.	.	.	.	.	.	.	.	.	.	.	16G-\	.	.	16g-/	.	.	.	.
.	.	.	.	.	.	.	.	.	.	.	16A-\	.	.	16a-/	.	.	.	.
.	.	.	.	.	.	.	.	.	.	.	16B-\	.	.	16b-/	.	.	.	.
8r	.	8r	.	.	.	.	.	.	.	.	16c\	.	8r	16cc/	.	8r	8r	.
.	.	.	.	.	.	.	.	.	.	.	16d-\JJ	.	.	16dd-/JJ	.	.	.	.
=46	=46	=46	=46	=46	=46	=46	=46	=46	=46	=46	=46	=46	=46	=46	=46	=46	=46	=46
2.r	.	2.r	.	2.r	.	2.r	.	2.r	.	2.r	16A-\LL)	.	2.r	16a-/LL)	.	2.r	2.r	.
.	.	.	.	.	.	.	.	.	.	.	(16F\	.	.	(16f/	.	.	.	.
.	.	.	.	.	.	.	.	.	.	.	16G-\	.	.	16g-/	.	.	.	.
.	.	.	.	.	.	.	.	.	.	.	16A-\	.	.	16a-/	.	.	.	.
.	.	.	.	.	.	.	.	.	.	.	16B-\	.	.	16b-/	.	.	.	.
.	.	.	.	.	.	.	.	.	.	.	16A-\JJ	.	.	16a-/JJ	.	.	.	.
.	.	.	.	.	.	.	.	.	.	.	16A-\LL	.	.	16b-\LL	.	.	.	.
.	.	.	.	.	.	.	.	.	.	.	16B-\JJ	.	.	16cc\	.	.	.	.
*	*	*	*	*	*	*	*	*	*	*	*clefG2	*	*	*	*	*	*	*
.	.	.	.	.	.	.	.	.	.	.	16d-/LL	.	.	16dd-\	.	.	.	.
.	.	.	.	.	.	.	.	.	.	.	16e-/	.	.	16ee-\	.	.	.	.
.	.	.	.	.	.	.	.	.	.	.	16f/	.	.	16ff\	.	.	.	.
.	.	.	.	.	.	.	.	.	.	.	16g-/JJ)	.	.	16gg-\JJ)	.	.	.	.
=47	=47	=47	=47	=47	=47	=47	=47	=47	=47	=47	=47	=47	=47	=47	=47	=47	=47	=47
!LO:TX:b:t=pizz	!	!	!	!	!	!	!	!	!	!	!	!	!	!	!	!	!	!
!	!LO:DY:rj	!	!	!	!LO:DY:rj	!	!LO:DY:rj	!	!LO:DY:rj	!	!	!	!	!	!	!	!	!LO:DY:rj
4D-\	pp	8r	.	[2.F/	pp	[2.A-/	p	(4a-^/	p	8r	(16a-^/LL	.	2.r	(16aa-^\LL	.	[>2.DD-/ [>2.D-	2.r	pp
.	.	.	.	.	.	.	.	.	.	.	16b-/	.	.	16bb-\	.	.	.	.
!	!	!LO:TX:b:t=pizzi	!	!	!	!	!	!	!	!	!	!	!	!	!	!	!	!
.	.	8AA-\L	.	.	.	.	.	.	.	8AA-'\L	16a-/	.	.	16aa-\	.	.	.	.
.	.	.	.	.	.	.	.	.	.	.	16f/	.	.	16ff\	.	.	.	.
8r	.	8D-\J	.	.	.	.	.	8aa-\	.	8D-'\J	16d-/	.	.	16dd-\	.	.	.	.
.	.	.	.	.	.	.	.	.	.	.	16e-/JJ	.	.	16ee-\JJ	.	.	.	.
4r	.	8A-\L	.	.	.	.	.	8ff\L	.	8A-'\L	16f/LL	.	.	16ff\LL	.	.	.	.
.	.	.	.	.	.	.	.	.	.	.	16e-/	.	.	16ee-\	.	.	.	.
.	.	8D-\	.	.	.	.	.	8ee-\	.	8D-'\	16d-/	.	.	16dd-\	.	.	.	.
.	.	.	.	.	.	.	.	.	.	.	16e-/	.	.	16ee-\	.	.	.	.
8r	.	8AA-\J	.	.	.	.	.	8dd-\J)	.	8AA-'\J	16f/	.	.	16ff\	.	.	.	.
.	.	.	.	.	.	.	.	.	.	.	16g-/JJ	.	.	16gg-\JJ	.	.	.	.
=48	=48	=48	=48	=48	=48	=48	=48	=48	=48	=48	=48	=48	=48	=48	=48	=48	=48	=48
*	*	*rep	*	*	*	*	*	*	*	*	*rep	*	*	*rep	*	*rep	*	*
!	!	!	!	!	!	!	!	!	!	!LO:TX:t=P:problem:mixed beam	!	!	!	!	!	!	!	!
8r	.	8r	.	8F/]	.	8A-/]	.	[2.a-/	.	8A-'\L	16a-^/LL	.	2.r	16aa-^\LL	.	2.DD-/_> (>2.D-]	2.r	.
.	.	.	.	.	.	.	.	.	.	.	16b-/	.	.	16bb-\	.	.	.	.
8r	.	8AA-\L	.	8r	.	8r	.	.	.	8AA-'/	16a-/	.	.	16aa-\	.	.	.	.
.	.	.	.	.	.	.	.	.	.	.	16f/	.	.	16ff\	.	.	.	.
8D-'\	.	8D-\J	.	8F'/	.	8A-'/	.	.	.	8D-'/J	16d-/	.	.	16dd-\	.	.	.	.
.	.	.	.	.	.	.	.	.	.	.	16e-/JJ	.	.	16ee-\JJ	.	.	.	.
4D-\	.	8A-\L	.	4F/	.	4A-/	.	.	.	8A-'\L	16f/LL	.	.	16ff\LL	.	.	.	.
.	.	.	.	.	.	.	.	.	.	.	16e-/	.	.	16ee-\	.	.	.	.
.	.	8D-\	.	.	.	.	.	.	.	8D-'\	16d-/	.	.	16dd-\	.	.	.	.
.	.	.	.	.	.	.	.	.	.	.	16e-/	.	.	16ee-\	.	.	.	.
8D-'\	.	8AA-\J	.	8F'/	.	8A-'/	.	.	.	8AA-'\J	16f/	.	.	16ff\	.	.	.	.
.	.	.	.	.	.	.	.	.	.	.	16g-/JJ	.	.	16gg-\JJ	.	.	.	.
*	*	*Xrep	*	*	*	*	*	*	*	*	*Xrep	*	*	*Xrep	*	*Xrep	*	*
!!LO:PB:g=original
*	*	*	*	*	*	*	*	*	*	*	*	*	*	*	*	*	*clefF4	*
=49	=49	=49	=49	=49	=49	=49	=49	=49	=49	=49	=49	=49	=49	=49	=49	=49	=49	=49
4D-\	.	8r	.	4.F/	.	4A-/	.	4a-/]	.	8A-\L	16a-/LL	.	2.r	16aa-\LL	.	2.DD-/] 2.AA-)	(>4.F\	.
.	.	.	.	.	.	.	.	.	.	.	16dd-/	.	.	16ddd-\	.	.	.	.
.	.	8AA-\L	.	.	.	.	.	.	.	8AA-\	16cc/	.	.	16ccc\	.	.	.	.
.	.	.	.	.	.	.	.	.	.	.	16b-/	.	.	16bb-\	.	.	.	.
8r	.	8D-\J	.	.	.	8r	.	8d-/	.	8D-\J	16a-/	.	.	16aa-\	.	.	.	.
.	.	.	.	.	.	.	.	.	.	.	16b-/JJ	.	.	16bb-\JJ	.	.	.	.
4r	.	8A-\L	.	4.E-/	.	4r	.	(8c^>/L	.	8A-\L	16a-/LL	.	.	16aa-\LL	.	.	4.E-\ 4.G-	.
.	.	.	.	.	.	.	.	.	.	.	16g-/	.	.	16gg-\	.	.	.	.
.	.	8E-\	.	.	.	.	.	8B-/)	.	8D-\	16e-/	.	.	16ee-\	.	.	.	.
.	.	.	.	.	.	.	.	.	.	.	16f/	.	.	16ff\	.	.	.	.
8r	.	8AA-\J	.	.	.	8r	.	8A-/J	.	8AA-\J	16g-/	.	.	16gg-\	.	.	.	.
.	.	.	.	.	.	.	.	.	.	.	16b-/JJ	.	.	16bb-\JJ	.	.	.	.
=50	=50	=50	=50	=50	=50	=50	=50	=50	=50	=50	=50	=50	=50	=50	=50	=50	=50	=50
8r	.	8r	.	8F/	.	8r	.	2.f/	.	8A-\L	16a-/LL	.	2.r	16aa-\LL	.	[>2.DD-/ [>2.D-	[>2.F\) [>2.A-	.
.	.	.	.	.	.	.	.	.	.	.	16g-/	.	.	16gg-\	.	.	.	.
8r	.	8AA-\L	.	8r	.	8r	.	.	.	8AA-\	16f/	.	.	16ff\	.	.	.	.
.	.	.	.	.	.	.	.	.	.	.	16e-/	.	.	16ee-\	.	.	.	.
8D-\	.	8D-\J	.	8F'/ 8A-	.	8d-|</	.	.	.	8D-\J	16d-/	.	.	16dd-\	.	.	.	.
.	.	.	.	.	.	.	.	.	.	.	16e-/JJ	.	.	16ee-\JJ	.	.	.	.
4D-\	.	8A-\L	.	4F/ 4A-	.	4d-/	.	.	.	8A-\L	16f/LL	.	.	16ff\LL	.	.	.	.
.	.	.	.	.	.	.	.	.	.	.	16e-/	.	.	16ee-\	.	.	.	.
.	.	8D-\	.	.	.	.	.	.	.	8D-\	16d-/	.	.	16dd-\	.	.	.	.
.	.	.	.	.	.	.	.	.	.	.	16e-/	.	.	16ee-\	.	.	.	.
8D-\	.	8AA-\J	.	8F'/ 8A-	.	8d-|</	.	.	.	8AA-\J	16f/	.	.	16ff\	.	.	.	.
.	.	.	.	.	.	.	.	.	.	.	16g-/JJ	.	.	16gg-\JJ	.	.	.	.
=51	=51	=51	=51	=51	=51	=51	=51	=51	=51	=51	=51	=51	=51	=51	=51	=51	=51	=51
*	*	*rep	*	*	*	*	*	*	*	*rep	*	*	*	*	*	*rep	*	*
4D-\	.	8r	.	[>2.F/ [>2.A-	.	[2.d-/	.	(4a-^\	.	8A-\L	16a-^/LL	.	2.r	16aa-^<\LL	.	2.DD-/_> 2.D-_>	4F\] 4A-]	.
.	.	.	.	.	.	.	.	.	.	.	16b-/	.	.	16bb-\	.	.	.	.
.	.	8AA-\L	.	.	.	.	.	.	.	8AA-\	16a-/	.	.	16aa-\	.	.	.	.
.	.	.	.	.	.	.	.	.	.	.	16f/	.	.	16ff\	.	.	.	.
8r	.	8D-\J	.	.	.	.	.	8aa-\)	.	8D-\J	16d-/	.	.	16dd-\	.	.	8r	.
.	.	.	.	.	.	.	.	.	.	.	16e-/JJ	.	.	16ee-\JJ	.	.	.	.
4r	.	8A-\L	.	.	.	.	.	8.ff\L	.	8A-\L	16f/LL	.	.	16ff\LL	.	.	4r	.
.	.	.	.	.	.	.	.	.	.	.	16e-/	.	.	16ee-\	.	.	.	.
.	.	8D-\	.	.	.	.	.	.	.	8D-\	16d-/	.	.	16dd-\	.	.	.	.
.	.	.	.	.	.	.	.	16ee-\K	.	.	16e-/	.	.	16ee-\	.	.	.	.
8r	.	8AA-\J	.	.	.	.	.	8dd-\J	.	8AA-\J	16f/	.	.	16ff\	.	.	8r	.
.	.	.	.	.	.	.	.	.	.	.	16g-/JJ	.	.	16gg-\JJ	.	.	.	.
*	*	*Xrep	*	*	*	*	*	*	*	*Xrep	*	*	*	*	*	*Xrep	*	*
=52	=52	=52	=52	=52	=52	=52	=52	=52	=52	=52	=52	=52	=52	=52	=52	=52	=52	=52
*	*	*rep	*	*	*	*	*	*	*	*rep	*	*	*	*	*	*rep	*	*
8r	.	8r	.	8F/] 8A-]	.	8d-/]	.	[>2.a-/	.	8A-\L	16a-^/LL	.	2.r	16aa-^<\LL	.	2.DD-/] 2.D-]	2.r	.
.	.	.	.	.	.	.	.	.	.	.	16dd-/	.	.	16ddd-\	.	.	.	.
8r	.	8AA-\L	.	8r	.	8r	.	.	.	8AA-\	16a-/	.	.	16aa-\	.	.	.	.
.	.	.	.	.	.	.	.	.	.	.	16f/	.	.	16ff\	.	.	.	.
8D-\	.	8D-\J	.	8F/ 8A-	.	8d-'/ 8f	.	.	.	8D-\J	16d-/	.	.	16dd-\	.	.	.	.
.	.	.	.	.	.	.	.	.	.	.	16e-/JJ	.	.	16ee-\JJ	.	.	.	.
4D-\	.	8A-\L	.	4F/ 4A-	.	4d-'/ 4f	.	.	.	8A-\L	16en/LL	.	.	16een\LL	.	.	.	.
.	.	.	.	.	.	.	.	.	.	.	16f/	.	.	16ff\	.	.	.	.
.	.	8D-\	.	.	.	.	.	.	.	8D-\	16g-/	.	.	16gg-\	.	.	.	.
.	.	.	.	.	.	.	.	.	.	.	16a-/	.	.	16aa-\	.	.	.	.
8D-\	.	8AA-\J	.	8F'/ 8A-	.	8d-'/ 8f	.	.	.	8AA-\J	16b-/	.	.	16bb-\	.	.	.	.
.	.	.	.	.	.	.	.	.	.	.	16cc/JJ	.	.	16ccc\JJ	.	.	.	.
*	*	*Xrep	*	*	*	*	*	*	*	*Xrep	*	*	*	*	*	*Xrep	*	*
=53	=53	=53	=53	=53	=53	=53	=53	=53	=53	=53	=53	=53	=53	=53	=53	=53	=53	=53
*	*	*	*	*	*	*	*	*	*	*	*	*	*	*	*	*	*^	*
4D-\	.	8A-\L	.	4.F/	.	4.d-/	.	4a-/]	.	8A-\L	16dd-^<\LL	.	2.r	16ddd-^<\LL	.	(<[<2.DD-/ [>2.AA-	2.A-/	(>4.F\	.
.	.	.	.	.	.	.	.	.	.	.	16ff\	.	.	16fff\	.	.	.	.	.
.	.	8AA-\	.	.	.	.	.	.	.	8AA-\	16ee-\	.	.	16eee-\	.	.	.	.	.
.	.	.	.	.	.	.	.	.	.	.	16dd-\	.	.	16ddd-\	.	.	.	.	.
8r	.	8D-\J	.	.	.	.	.	8f/	.	8D-\J	16cc\	.	.	16ccc\	.	.	.	.	.
.	.	.	.	.	.	.	.	.	.	.	16b-\JJ	.	.	16bb-\JJ	.	.	.	.	.
4r	.	8A-\L	.	4E-/	.	4.c/	.	(8g-^/L	.	8A-\L	16cc^\LL	.	.	16ccc^\LL	.	.	.	4E-\	.
.	.	.	.	.	.	.	.	.	.	.	16b-\	.	.	16bb-\	.	.	.	.	.
.	.	8E-\	.	.	.	.	.	8f/)	.	8E-\	16a-\	.	.	16aa-\	.	.	.	.	.
.	.	.	.	.	.	.	.	.	.	.	16b-\	.	.	16bb-\	.	.	.	.	.
8r	.	8AA-\J	.	8G-/	.	.	.	8e-/J	.	8AA-\J	16g-\	.	.	16gg-\	.	.	.	8G-\)	.
.	.	.	.	.	.	.	.	.	.	.	16e-\JJ	.	.	16ee-\JJ	.	.	.	.	.
*	*	*	*	*	*	*	*	*	*	*	*	*	*	*	*	*	*v	*v	*
=54	=54	=54	=54	=54	=54	=54	=54	=54	=54	=54	=54	=54	=54	=54	=54	=54	=54	=54
*	*	*	*	*	*	*	*	*	*	*	*	*	*	*	*	*^	*	*
*rep	*	*	*	*	*	*	*	*	*	*	*	*	*	*	*	*	*	*	*
4D-\	.	8A-\L	.	2.F/	.	2.d-/	.	2.a-/	.	8A-\L	16f^/LL	.	2.r	16ff^\LL	.	4.AA-/])	2.DD-\]	2.F\ 2.A-	.
.	.	.	.	.	.	.	.	.	.	.	16e-/	.	.	16ee-\	.	.	.	.	.
.	.	8F\	.	.	.	.	.	.	.	8F\	16d-/	.	.	16dd-\	.	.	.	.	.
.	.	.	.	.	.	.	.	.	.	.	16c/	.	.	16cc\	.	.	.	.	.
8r	.	8D-\J	.	.	.	.	.	.	.	8D-\J	16B-/	.	.	16b-\	.	.	.	.	.
.	.	.	.	.	.	.	.	.	.	.	16B--/JJ	.	.	16b--\JJ	.	.	.	.	.
4r	.	8F\L	.	.	.	.	.	.	.	8F\L	16A-/LL	.	.	16a-\LL	.	4.D-/	.	.	.
!	!	!	!	!	!	!	!	!	!	!	!LO:N:acc=n-	!	!	!LO:N:acc=n-	!	!	!	!	!
.	.	.	.	.	.	.	.	.	.	.	16B-X/	.	.	16b-X\	.	.	.	.	.
.	.	8A-\	.	.	.	.	.	.	.	8A-\	16c/	.	.	16cc\	.	.	.	.	.
.	.	.	.	.	.	.	.	.	.	.	16d-/	.	.	16dd-\	.	.	.	.	.
8r	.	8D-\J	.	.	.	.	.	.	.	8D-\J	16e-/	.	.	16ee-\	.	.	.	.	.
.	.	.	.	.	.	.	.	.	.	.	16f/JJ	.	.	16ff\JJ	.	.	.	.	.
*Xrep	*	*	*	*	*	*	*	*	*	*	*	*	*	*	*	*	*	*	*
!!LO:PB:g=original
=55	=55	=55	=55	=55	=55	=55	=55	=55	=55	=55	=55	=55	=55	=55	=55	=55	=55	=55	=55
*	*	*	*	*^	*	*	*	*	*	*	*	*	*	*	*	*	*	*	*
!	!	!	!	!	!	!	!	!	!	!	!LO:TX:t=P:problem:mixed beam	!	!	!	!	!	!	!	!	!
!	!	!	!	!	!	!	!	!	!	!	!	!	!	!	!	!	!	!	!LO:TX:t=P:problem:zbędny łuk	!
4AA-/	.	8r	.	[>2.G-/	[>2.E-\	.	4.e-/	.	4.cc\	.	8A-\L	16a-/LL	.	2.r	16aa-^\LL	.	[>2.G-/	[>2.AA-\	[>2.GG-/	.
.	.	.	.	.	.	.	.	.	.	.	.	16g-/	.	.	16gg-\	.	.	.	.	.
.	.	8AA-/L	.	.	.	.	.	.	.	.	8AA-/	16e-/	.	.	16ee-\	.	.	.	.	.
.	.	.	.	.	.	.	.	.	.	.	.	16c/	.	.	16cc\	.	.	.	.	.
8r	.	8E-/J	.	.	.	.	.	.	.	.	8E-\J	16A-/	.	.	16a-\	.	.	.	.	.
.	.	.	.	.	.	.	.	.	.	.	.	16An/JJ	.	.	16an\JJ	.	.	.	.	.
!	!	!LO:TX:t=P:problem:mixed beam	!	!	!	!	!	!	!	!	!	!	!	!	!	!	!	!	!	!
4r	.	8A-\L	.	.	.	.	(8d-/L	.	(8b-\L	.	8A-\L	16B-/LL	.	.	16b-\LL	.	.	.	.	.
.	.	.	.	.	.	.	.	.	.	.	.	16d-/	.	.	16dd-\	.	.	.	.	.
.	.	8E-\	.	.	.	.	8e-/	.	8cc\	.	8E-\	16c/	.	.	16cc\	.	.	.	.	.
.	.	.	.	.	.	.	.	.	.	.	.	16d-/	.	.	16dd-\	.	.	.	.	.
8r	.	8AA-/J	.	.	.	.	8d-/J)	.	8b-\J)	.	8AA-\J	16e-/	.	.	16ee-\	.	.	.	.	.
.	.	.	.	.	.	.	.	.	.	.	.	16d-/JJ)	.	.	16dd-\JJ)	.	.	.	.	.
=56	=56	=56	=56	=56	=56	=56	=56	=56	=56	=56	=56	=56	=56	=56	=56	=56	=56	=56	=56	=56
*rep	*	*rep	*	*rep	*rep	*	*	*	*	*	*rep	*	*	*	*	*	*rep	*rep	*rep	*
!	!	!	!	!	!	!	!	!	!	!	!LO:TX:t=P:problem:mixed beam	!	!	!	!	!	!	!	!	!
4AA-/	.	8r	.	2.G-/_>	2.E-\_>	.	(4.d-^/	.	(4.b-^\	.	8A-\L	(16d-^/LL	.	2.r	(16dd-^\LL	.	2.G-/_>	2.AA-\_>	2.GG-/_>	.
.	.	.	.	.	.	.	.	.	.	.	.	16e-/	.	.	16ee-\	.	.	.	.	.
.	.	8AA-/L	.	.	.	.	.	.	.	.	8AA-/	16f/	.	.	16ff\	.	.	.	.	.
.	.	.	.	.	.	.	.	.	.	.	.	16g-/	.	.	16gg-\	.	.	.	.	.
8r	.	8E-/J	.	.	.	.	.	.	.	.	8E-\J	16a-/	.	.	16aa-\	.	.	.	.	.
.	.	.	.	.	.	.	.	.	.	.	.	16b-/JJ)	.	.	16bb-\JJ)	.	.	.	.	.
!	!	!LO:TX:t=P:problem:mixed beam	!	!	!	!	!	!	!	!	!	!	!	!	!	!	!	!	!	!
4r	.	8A-\L	.	.	.	.	4.c/)	.	4.a-\)	.	8A-\L	(16c^/LL	.	.	(16cc^\LL	.	.	.	.	.
.	.	.	.	.	.	.	.	.	.	.	.	16d-/	.	.	16dd-\	.	.	.	.	.
.	.	8E-\	.	.	.	.	.	.	.	.	8E-\	16e-/	.	.	16ee-\	.	.	.	.	.
.	.	.	.	.	.	.	.	.	.	.	.	16f/	.	.	16ff\	.	.	.	.	.
8r	.	8AA-/J	.	.	.	.	.	.	.	.	8AA-\J	16g-/	.	.	16gg-\	.	.	.	.	.
.	.	.	.	.	.	.	.	.	.	.	.	16e-/JJ)	.	.	16ee-\JJ)	.	.	.	.	.
*Xrep	*	*Xrep	*	*Xrep	*Xrep	*	*	*	*	*	*Xrep	*	*	*	*	*	*Xrep	*Xrep	*Xrep	*
=57	=57	=57	=57	=57	=57	=57	=57	=57	=57	=57	=57	=57	=57	=57	=57	=57	=57	=57	=57	=57
*rep	*	*rep	*	*rep	*rep	*	*	*	*	*	*rep	*	*	*	*	*	*rep	*rep	*rep	*
!	!	!	!	!	!	!	!	!	!	!	!LO:TX:t=P:problem:mixed beam	!	!	!	!	!	!	!	!	!
4AA-/	.	8r	.	2.G-/_>	2.E-\_>	.	4.c/	.	4.ee-\	.	8A-\L	(16a-^/LL	.	2.r	(16aa-^\LL	.	2.G-/_>	2.AA-\_>	2.GG-/_>	.
.	.	.	.	.	.	.	.	.	.	.	.	16g-/	.	.	16gg-\	.	.	.	.	.
.	.	8AA-/L	.	.	.	.	.	.	.	.	8AA-/	16e-/	.	.	16ee-\	.	.	.	.	.
.	.	.	.	.	.	.	.	.	.	.	.	16c/	.	.	16cc\	.	.	.	.	.
8r	.	8E-/J	.	.	.	.	.	.	.	.	8E-\J	16A-/	.	.	16a-\	.	.	.	.	.
.	.	.	.	.	.	.	.	.	.	.	.	16An/JJ	.	.	16an\JJ	.	.	.	.	.
!	!	!LO:TX:t=P:problem:mixed beam	!	!	!	!	!	!	!	!	!	!	!	!	!	!	!	!	!	!
4r	.	8A-\L	.	.	.	.	(8B-/L	.	(8dd-\L	.	8A-\L	16B-/LL	.	.	16b-\LL	.	.	.	.	.
.	.	.	.	.	.	.	.	.	.	.	.	16d-/	.	.	16dd-\	.	.	.	.	.
.	.	8E-\	.	.	.	.	8c/	.	8ee-\	.	8E-\	16g-/	.	.	16gg-\	.	.	.	.	.
.	.	.	.	.	.	.	.	.	.	.	.	16f/	.	.	16ff\	.	.	.	.	.
8r	.	8AA-/J	.	.	.	.	8B-/J)	.	8dd-\J)	.	8AA-\J	16e-/	.	.	16ee-\	.	.	.	.	.
.	.	.	.	.	.	.	.	.	.	.	.	16d-/JJ)	.	.	16dd-\JJ)	.	.	.	.	.
*Xrep	*	*Xrep	*	*Xrep	*Xrep	*	*	*	*	*	*Xrep	*	*	*	*	*	*Xrep	*Xrep	*Xrep	*
=58	=58	=58	=58	=58	=58	=58	=58	=58	=58	=58	=58	=58	=58	=58	=58	=58	=58	=58	=58	=58
*rep	*	*rep	*	*rep	*rep	*	*	*	*	*	*rep	*	*	*	*	*	*rep	*rep	*rep	*
!	!	!	!	!	!	!	!	!	!	!	!LO:TX:t=P:problem:mixed beam	!LO:TX:t=P:problem:mixed beam	!	!	!	!	!	!	!	!
4AA-/	.	8r	.	2.G-/]	2.E-\]	.	(4.B-^/	.	(4.dd-^\	.	8A-\L	16d-^/LL	.	2.r	16dd-^\LL	.	2.G-/]	2.AA-\]	2.GG-/]	.
.	.	.	.	.	.	.	.	.	.	.	.	(16dd-\	.	.	(16ddd-\	.	.	.	.	.
.	.	8AA-/L	.	.	.	.	.	.	.	.	8AA-/	16cc\	.	.	16ccc\	.	.	.	.	.
.	.	.	.	.	.	.	.	.	.	.	.	16b-\	.	.	16bb-\	.	.	.	.	.
8r	.	8E-/J	.	.	.	.	.	.	.	.	8E-\J	16a-\	.	.	16aa-\	.	.	.	.	.
.	.	.	.	.	.	.	.	.	.	.	.	16b-\JJ	.	.	16bb-\JJ	.	.	.	.	.
!	!	!LO:TX:t=P:problem:mixed beam	!	!	!	!	!	!	!	!	!	!	!	!	!	!	!	!	!	!
4r	.	8A-\L	.	.	.	.	4.A-/)	.	4cc\)	.	8A-\L	16a-/LL	.	.	16aa-\LL	.	.	.	.	.
.	.	.	.	.	.	.	.	.	.	.	.	16g-/	.	.	16gg-\	.	.	.	.	.
.	.	8E-\	.	.	.	.	.	.	.	.	8E-\	16e-/	.	.	16ee-\	.	.	.	.	.
.	.	.	.	.	.	.	.	.	.	.	.	16dn/	.	.	16ddn\	.	.	.	.	.
8r	.	8AA-/J	.	.	.	.	.	.	8ee-\	.	8AA-\J	16e-/	.	.	16ee-\	.	.	.	.	.
.	.	.	.	.	.	.	.	.	.	.	.	16f/JJ	.	.	16ff\JJ	.	.	.	.	.
*Xrep	*	*Xrep	*	*Xrep	*Xrep	*	*	*	*	*	*Xrep	*	*	*	*	*	*Xrep	*Xrep	*Xrep	*
*	*	*	*	*v	*v	*	*	*	*	*	*	*	*	*	*	*	*	*	*	*
=59	=59	=59	=59	=59	=59	=59	=59	=59	=59	=59	=59	=59	=59	=59	=59	=59	=59	=59	=59
!LO:TX:b:t=arco:rj	!	!	!	!	!	!	!	!	!	!	!	!	!	!	!	!	!	!	!
4.A-\	<	8r	.	4e-\	.	4cc\	.	4gg-\	.	8AA-\L	16g-^/LL	.	2.r	16gg-^\LL	.	(<4.A-/	2.E-\ 2.G-	(>4.GG-/ 4.E-	<
.	.	.	.	.	.	.	.	.	.	.	16a-/	.	.	16aa-\	.	.	.	.	.
.	.	8E-\L	<	.	.	.	.	.	.	8E-\	16g-/	.	.	16gg-\	.	.	.	.	.
.	.	.	.	.	.	.	.	.	.	.	16f/	.	.	16ff\	.	.	.	.	.
.	.	8A-\J	.	8e-'\	.	8cc'\	.	8gg-'\	.	8A-\J	16e-/	.	.	16ee-\	.	.	.	.	.
.	.	.	.	.	.	.	.	.	.	.	16f/JJ	.	.	16ff\JJ	.	.	.	.	.
4.B--\	[ > ]]	8B--\L	[ sf >	4.e-^\	.	(4.dd-^\	.	[4.gg-^\	.	8B--\L	16g-/LL	.	.	16gg-\LL	.	4.B--/	.	4.FF/ 4.F	[ > ]]
.	.	.	.	.	.	.	.	.	.	.	16f/	.	.	16ff\	.	.	.	.	.
.	.	8G-\	.	.	.	.	.	.	.	8E-\	16e-/	.	.	16ee-\	.	.	.	.	.
.	.	.	.	.	.	.	.	.	.	.	16dn/	.	.	16ddn\	.	.	.	.	.
.	.	8B--\J	]]	.	.	.	.	.	.	8BB--\J	16e-/	.	.	16ee-\	.	.	.	.	.
.	.	.	.	.	.	.	.	.	.	.	16f/JJ	.	.	16ff\JJ	.	.	.	.	.
=60	=60	=60	=60	=60	=60	=60	=60	=60	=60	=60	=60	=60	=60	=60	=60	=60	=60	=60	=60
*	*	*rep	*	*	*	*	*	*	*	*rep	*	*	*	*	*	*	*	*	*
4.A-\	<	8r	.	4e-\	.	4cc\)	.	4gg-\]	.	8AA-\L	16g-/LL	<	2.r	16gg-\LL	<	4.A-/	2D-\ 2F	4.GG-/ 4.E-	<
.	.	.	.	.	.	.	.	.	.	.	16a-/	.	.	16aa-\	.	.	.	.	.
.	.	8E-\L	<	.	.	.	.	.	.	8E-\	16b--/	.	.	16bb--\	.	.	.	.	.
.	.	.	.	.	.	.	.	.	.	.	16g-/	[ >	.	16gg-\	[ >	.	.	.	.
.	.	8A-\J	.	8e-'\	.	8cc'\	.	8gg-|>\	.	8A-\J	16e-/	.	.	16ee-\	.	.	.	.	.
.	.	.	.	.	.	.	.	.	.	.	16c/JJ	.	.	16cc\JJ	.	.	.	.	.
!	!	!	!	!	!	!	!	!	!	!	!LO:TUP:b:problem:brak klamry	!	!	!LO:TUP:a:problem:brak klamry	!	!	!	!	!
4.B--\	[ > ]]	8B--\L	[ sf >	4.e-^\	.	4.dd-^\	.	4.gg-^\	.	8B--\L	24d-/LL	]	.	24dd-\LL	]	4.B--/)	.	4.FF/) 4.F	[ > ]]
.	.	.	.	.	.	.	.	.	.	.	24e-/	.	.	24ee-\	.	.	.	.	.
.	.	.	.	.	.	.	.	.	.	.	24d-/	.	.	24dd-\	.	.	.	.	.
.	.	8G-\	.	.	.	.	.	.	.	8E-\	16c/	.	.	16cc\	.	.	4ryy	.	.
.	.	.	.	.	.	.	.	.	.	.	16d-/	.	.	16dd-\	.	.	.	.	.
.	.	8B--\J	]]	.	.	.	.	.	.	8BB--\J	16e-/	.	.	16ee-\	.	.	.	.	.
.	.	.	.	.	.	.	.	.	.	.	16f/JJ	.	.	16ff\JJ	.	.	.	.	.
*	*	*Xrep	*	*	*	*	*	*	*	*Xrep	*	*	*	*	*	*	*	*	*
!!LO:PB:g=original
=61	=61	=61	=61	=61	=61	=61	=61	=61	=61	=61	=61	=61	=61	=61	=61	=61	=61	=61	=61
*	*	*	*	*	*	*	*	*	*	*	*	*	*	*	*	*	*^	*	*
(4.AA-/	.	8r	.	4.c\	.	8r	.	4gg-\	.	8AA-\L	16g-/LL	.	2.r	16gg-\LL	.	[2.G-/	(<4.AA-\	4.AA-/	[>2.BB-/	.
.	.	.	.	.	.	.	.	.	.	.	16f/	.	.	16ff\	.	.	.	.	.	.
!	!	!	!LO:DY:rj	!	!	!	!	!	!	!	!	!	!	!	!	!	!	!	!	!
.	.	8D-\L	f	.	.	(8g-\L	.	.	.	8E-\	16a-/	.	.	16aa-\)	.	.	.	.	.	.
.	.	.	.	.	.	.	.	.	.	.	16g-/J)	.	.	16gg-\J	.	.	.	.	.	.
.	.	8A-\J	.	.	.	8ee-\J)	.	[8gg-\	.	8A-\J	(16g-/L	.	.	(16gg-\L	.	.	.	.	.	.
.	.	.	.	.	.	.	.	.	.	.	16f/JJ	.	.	16ff\JJ	.	.	.	.	.	.
4.BB--/	.	8r	.	4.d-\	.	8r	.	4gg-\]	.	8BB--\L	16a-/LL	.	.	16aa-\LL	.	.	4.AAn\	4.AAn/	.	.
.	.	.	.	.	.	.	.	.	.	.	16g-/J)	.	.	16gg-\J)	.	.	.	.	.	.
.	.	8E-\L	.	.	.	8g-\L	.	.	.	8E-\	(16g-/L	.	.	(16gg-\L	.	.	.	.	.	.
.	.	.	.	.	.	.	.	.	.	.	16f/	.	.	16ff\	.	.	.	.	.	.
.	.	8An\J	.	.	.	8ee-\J	.	[8gg-\	.	8B--\J	16a-/	.	.	16aa-\	.	.	.	.	.	.
.	.	.	.	.	.	.	.	.	.	.	16g-/JJ)	.	.	16gg-\JJ)	.	.	.	.	.	.
*	*	*	*	*	*	*	*	*	*	*	*	*	*	*	*	*	*v	*v	*	*
=62	=62	=62	=62	=62	=62	=62	=62	=62	=62	=62	=62	=62	=62	=62	=62	=62	=62	=62	=62
!LO:N:acc=n-	!	!	!	!	!	!	!	!	!	!LO:N:acc=n-	!	!	!	!	!	!	!	!	!
4.BB-X/	.	8r	.	4.dn\	.	8r	.	4gg-\]	.	8BB-X\L	(16g-/LL	.	2.r	(16gg-\LL	.	4.G-/]	4.BB-/	4BB-/]	.
.	.	.	.	.	.	.	.	.	.	.	16f/	.	.	16ff\	.	.	.	.	.
.	.	8E-\L	.	.	.	(8g-/L	.	.	.	8E-\	16a-/	.	.	16aa-\	.	.	.	.	.
.	.	.	.	.	.	.	.	.	.	.	16g-/J)	.	.	16gg-\J)	.	.	.	.	.
!	!	!	!	!	!	!	!	!	!	!LO:N:acc=n-	!	!	!	!	!	!	!	!	!
.	.	8B-\J	.	.	.	8en/J)	.	8gg-\	.	8B-X\J	(16g-/L	.	.	(16gg-\L	.	.	.	8r	.
.	.	.	.	.	.	.	.	.	.	.	16gn/JJ	.	.	16ggn\JJ	.	.	.	.	.
4.C-X/)	.	8r	.	4.e-\	.	8r	.	4ff\	.	8C-X\L	16b-/LL	.	.	16bb-\LL	.	4.ryy	4.C-X/	4r	.
.	.	.	.	.	.	.	.	.	.	.	16a-/J)	.	.	16aa-\J)	.	.	.	.	.
.	.	8E-\L	.	.	.	8e/L	.	.	.	8E-\	(16a-/L	.	.	(16aa-\L	.	.	.	.	.
.	.	.	.	.	.	.	.	.	.	.	16g/	.	.	16gg\	.	.	.	.	.
.	.	8c-X\J	.	.	.	8a-/J	.	8ee-\	.	8c-X\J	16b-/	.	.	16bb-\	.	.	.	8r	.
.	.	.	.	.	.	.	.	.	.	.	16a-/JJ)	.	.	16aa-\JJ)	.	.	.	.	.
*	*	*	*	*	*	*	*	*	*	*	*	*	*	*	*	*v	*v	*	*
=63	=63	=63	=63	=63	=63	=63	=63	=63	=63	=63	=63	=63	=63	=63	=63	=63	=63	=63
4.Cn/	.	8r	.	4.E-/	.	(4A-/	.	(4a-/	.	8C\L	(16a-/LL	.	2.r	(16aa-\LL	.	4.Cn/	2.r	.
.	.	.	.	.	.	.	.	.	.	.	16gn/	.	.	16ggn\	.	.	.	.
.	.	8E-\L	.	.	.	.	.	.	.	8E-\	16b-/	.	.	16bb-\	.	.	.	.
.	.	.	.	.	.	.	.	.	.	.	16a-/J)	.	.	16aa-\J)	.	.	.	.
.	.	8A-\J	.	.	.	8a-/	.	8aa-\	.	8G-\J	(16a-/L	.	.	(16aa-\L	.	.	.	.
.	.	.	.	.	.	.	.	.	.	.	16g/JJ	.	.	16gg\JJ	.	.	.	.
4.D-/	.	8r	.	4.F/	.	8f/L	.	8ff\L	.	8D-\L 8F	16b-/LL	.	.	16bb-\LL	.	4.D-/	.	.
.	.	.	.	.	.	.	.	.	.	.	16a-/JJ)	.	.	16aa-\J)	.	.	.	.
.	.	8A-\L	.	.	.	8e-/	.	8ee-\)	.	8A-\	(16a-/LL	.	.	(16aa-\L	.	.	.	.
.	.	.	.	.	.	.	.	.	.	.	16b-/	.	.	16bb-\	.	.	.	.
.	.	8B-\J	.	.	.	8d-/J)	.	8dd-\J	.	8B-\J	16dd-/	.	.	16ddd-\	.	.	.	.
.	.	.	.	.	.	.	.	.	.	.	16cc/JJ)	.	.	16ccc\JJ)	.	.	.	.
=64	=64	=64	=64	=64	=64	=64	=64	=64	=64	=64	=64	=64	=64	=64	=64	=64	=64	=64
4.E-\	.	8r	.	4.G-/	.	4.c/	.	4.a-/	.	8E-\L 8G-	(16cc^<\LL	.	2.r	(16ccc^<\LL	.	4.E-\	2.r	.
.	.	.	.	.	.	.	.	.	.	.	16gg-\	.	.	16ggg-\	.	.	.	.
.	.	8A-\L	.	.	.	.	.	.	.	8A-\	16ff\	.	.	16fff\	.	.	.	.
.	.	.	.	.	.	.	.	.	.	.	16ee-\	.	.	16eee-\	.	.	.	.
.	.	8c\J	.	.	.	.	.	.	.	8c\J	16dd-\	.	.	16ddd-\	.	.	.	.
.	.	.	.	.	.	.	.	.	.	.	16cc\JJ	.	.	16ccc\JJ	.	.	.	.
4.F\	.	8r	.	4.A-/	.	4.d-/	.	4dd-\	.	8F\L	16dd-/LL	.	.	16ddd-\LL	.	4.F\	.	.
.	.	.	.	.	.	.	.	.	.	.	16cc/	.	.	16ccc\	.	.	.	.
.	.	8A-\L	.	.	.	.	.	.	.	8A-\	16b-/	.	.	16bb-\	.	.	.	.
.	.	.	.	.	.	.	.	.	.	.	16a-/	.	.	16aa-\	.	.	.	.
.	.	8d-\J	.	.	.	.	.	8dd-\	.	8d-\J	16gn/	.	.	16ggn\	.	.	.	.
.	.	.	.	.	.	.	.	.	.	.	16a-/JJ	.	.	16aa-\JJ	.	.	.	.
=65	=65	=65	=65	=65	=65	=65	=65	=65	=65	=65	=65	=65	=65	=65	=65	=65	=65	=65
4.G-\	.	8r	.	4.B-/	.	(4d-/	.	(4dd-\	.	8G-\L	16b-/LL	.	2.r	16bb-\LL	.	4.G-\	2.r	.
.	.	.	.	.	.	.	.	.	.	.	16a-/	.	.	16aa-\	.	.	.	.
.	.	8D-\L	.	.	.	.	.	.	.	8D-\	16g-X/	.	.	16gg-X\	.	.	.	.
.	.	.	.	.	.	.	.	.	.	.	16f/	.	.	16ff\	.	.	.	.
.	.	8B-\J	.	.	.	8dd-\	.	8ddd-\	.	8B-\J	16e-/	.	.	16ee-\	.	.	.	.
.	.	.	.	.	.	.	.	.	.	.	16d-/JJ	.	.	16dd-\JJ	.	.	.	.
4.A-\	.	8r	.	4.c-X\	.	8cc-X\L	.	8ccc-X\L	.	8A-\L	16f/LL	.	.	16ff\LL	.	4.A-\	.	.
.	.	.	.	.	.	.	.	.	.	.	16e-/	.	.	16ee-\	.	.	.	.
.	.	8A-\L	.	.	.	8b-\)	.	8bb-\)	.	8D-\J	16d-/	.	.	16dd-\	.	.	.	.
.	.	.	.	.	.	.	.	.	.	.	16c-X/	.	.	16cc-X\	.	.	.	.
.	.	8D-\J	.	.	.	8a-\J	.	8aa-\J	.	8r	16B-/	.	.	16b-\	.	.	.	.
.	.	.	.	.	.	.	.	.	.	.	16A-/JJ	.	.	16a-\JJ	.	.	.	.
=66	=66	=66	=66	=66	=66	=66	=66	=66	=66	=66	=66	=66	=66	=66	=66	=66	=66	=66
!	!	!	!	!	!	!	!	!	!	!	!LO:TX:t=P:problem:korekta.zdublowanie melodii w oktawie	!	!	!	!	!	!	!
4.An\	.	8r	.	4.cn\	.	4.a-/	.	4.aa-\	.	8r	16G-/LL	.	2.r	16g-@\LL	.	4.An\	2.r	.
.	.	.	.	.	.	.	.	.	.	.	16An/	.	.	16an@\	.	.	.	.
.	.	8E-\L	.	.	.	.	.	.	.	8E-\L	16B-/	.	.	16b-@\	.	.	.	.
.	.	.	.	.	.	.	.	.	.	.	16c/	.	.	16cc@\	.	.	.	.
.	.	8c\J	.	.	.	.	.	.	.	8c\J	16e-/	.	.	16ee-@\	.	.	.	.
.	.	.	.	.	.	.	.	.	.	.	16f/JJ	.	.	16ff@\JJ	.	.	.	.
4.B-\	.	8r	.	4.d-\	.	8g-/	.	8gg-\	.	8d-\L	16g-/LL	.	.	16gg-@\LL	.	4.B-\)	.	.
.	.	.	.	.	.	.	.	.	.	.	16cc/	.	.	16ccc@\	.	.	.	.
.	.	8G-\L	.	.	.	8r	.	8r	.	8G-\	16a-X/	.	.	16aa-X@\	.	.	.	.
.	.	.	.	.	.	.	.	.	.	.	16g-/	.	.	16gg-@\	.	.	.	.
.	.	8d-\J	.	.	.	8r	.	[8gg-\	.	8d-\J	16f/	.	.	16ff@\	.	.	.	.
.	.	.	.	.	.	.	.	.	.	.	16g-/JJ)	.	.	16gg-@\JJ)	.	.	.	.
!!LO:PB:g=original
=67	=67	=67	=67	=67	=67	=67	=67	=67	=67	=67	=67	=67	=67	=67	=67	=67	=67	=67
*	*	*	*	*	*	*	*	*	*	*	*	*	*	*	*	*^	*	*
!	!	!	!	!	!	!	!	!	!	!	!LO:S:color=blue	!	!	!LO:S:color=blue	!	!	!	!	!
4.c-X\	.	8r	.	(8cc-X\L	.	4.e-/	.	8gg-\L]	<	(8C-X^\L	(16e-/LL	.	2.r	(16ee-\LL	.	(4.G-/	2.E-\	2.r	.
.	.	.	.	.	.	.	.	.	.	.	16f/	.	.	16ff\	.	.	.	.	.
.	.	8E-\L	.	8b-\	.	.	.	16aa-\L	.	8E-\	16a-/	.	.	16aa-\	.	.	.	.	.
.	.	.	.	.	.	.	.	16gg-\	.	.	16g-/	.	.	16gg-\	.	.	.	.	.
.	.	8G-\J	.	8b--\J	.	.	.	16ff\	.	8G-\J)	16f/	.	.	16ff\	.	.	.	.	.
.	.	.	.	.	.	.	.	16gg-\JJ	.	.	16g-/JJ	.	.	16gg-\JJ	.	.	.	.	.
4.cn\	.	8r	.	8a-\L	.	4e-/	.	4aa-\	[ >	(8Cn^\L	16a-/LL	.	.	16aa-\LL	.	[4.A-/	.	.	.
.	.	.	.	.	.	.	.	.	.	.	16gn/	.	.	16ggn\	.	.	.	.	.
.	.	8E-\L	.	8gn\	.	.	.	.	.	8E-\	16b-/	.	.	16bb-\	.	.	.	.	.
.	.	.	.	.	.	.	.	.	.	.	16a-/	.	.	16aa-\	.	.	.	.	.
.	.	8A-\J	.	8g-X\J)	.	(8a-/	.	8ee-'\	]]	8A-\J)	16e-/	.	.	16ee-\	.	.	.	.	.
.	.	.	.	.	.	.	.	.	.	.	16g-X/JJ	.	.	16gg-X\JJ	.	.	.	.	.
=68	=68	=68	=68	=68	=68	=68	=68	=68	=68	=68	=68	=68	=68	=68	=68	=68	=68	=68	=68
4.d-\	.	8r	.	8f^\L	.	8a-'/)	.	8ff\L	<	(8D-^\L	16f/LL	.	2.r	16ff\LL	.	4.A-/]	[2.D-\	2.r	.
.	.	.	.	.	.	.	.	.	.	.	16a-/	.	.	16aa-\	.	.	.	.	.
.	.	8A-\L	.	16e-'\L	.	4a-/	.	16gg-\L	.	8G-\	16g-/	.	.	16gg-\	.	.	.	.	.
.	.	.	.	16d-'\	.	.	.	16ff\	.	.	16f/	.	.	16ff\	.	.	.	.	.
.	.	8D-\J	.	16c'\	.	.	.	16ee-\	.	8D-\J)	16e-/	.	.	16ee-\	.	.	.	.	.
.	.	.	.	16c-X'\JJ	.	.	.	16ff\JJ	.	.	16f/JJ	.	.	16ff\JJ	.	.	.	.	.
4.G-\	.	8r	.	(8B-^/L	.	(8g-/L	.	(4gg-^\	[	(8B-^\L	16g-\LL	.	.	16gg-\LL	.	8B-/L	.	.	.
.	.	.	.	.	.	.	.	.	.	.	16dd-\	.	.	16ddd-\	.	.	.	.	.
.	.	8G-\L	.	8A-/)	.	8a-/	.	.	.	8G-\)	16cc\	.	.	16ccc\	.	8A-/	.	.	.
.	.	.	.	.	.	.	.	.	.	.	16b-\	.	.	16bb-\	.	.	.	.	.
.	.	8B-\J	.	8G-/J	.	8d-/J)	.	8b-\)	.	8B-'\J	16a-\	.	.	16aa-\	.	8G-/J	.	.	.
.	.	.	.	.	.	.	.	.	.	.	16g-\JJ	.	.	16gg-\JJ	.	.	.	.	.
*	*	*	*	*	*	*	*	*	*	*	*	*	*	*	*	*v	*v	*	*
=69	=69	=69	=69	=69	=69	=69	=69	=69	=69	=69	=69	=69	=69	=69	=69	=69	=69	=69
4.A-\	.	8A-\L	.	(16F^/LL	.	8d-'/L	.	8dd-\L	.	8A-\L	16f/LL	.	2.r	16ff\LL	.	4D-\]) 4F	2.r	.
.	.	.	.	16A-/)	.	.	.	.	.	.	16e-/	.	.	16ee-\	.	.	.	.
.	.	8F\	.	16d-'/	.	16d-/L	.	16ee-\L	.	8F\	16d-/	.	.	16dd-\	.	.	.	.
.	.	.	.	16f'/J	.	16f/J	.	16dd-\	.	.	16c/	.	.	16cc\	.	.	.	.
.	.	8D-\J	.	([8a-^/J	.	([8a-^/J	.	16cc\	.	8D-\J	16B-/	.	.	16b-\	.	8A-\	.	.
.	.	.	.	.	.	.	.	16dd-\JJ	.	.	16A-/JJ	.	.	16a-\JJ	.	.	.	.
*	*	*	*	*	*	*	*	*	*	*	*clefF4	*	*	*	*	*	*	*
4E-\	.	8BB-/L	.	8a-\L]	.	8a-/L]	.	4ee-\	.	4AA-/	16c\LL	.	.	16cc/LL	.	(4B-\	.	.
.	.	.	.	.	.	.	.	.	.	.	16B-\	.	.	16b-/	.	.	.	.
.	.	8E-/	.	8gn\	.	8gn/)	.	.	.	.	16A-\	.	.	16a-/	.	.	.	.
.	.	.	.	.	.	.	.	.	.	.	16G-\	.	.	16g-/	.	.	.	.
8A-\	.	8AA-/J	.	8g-X\J)	.	8g-X/J	.	8a-\	.	8ryy	16F\	.	.	16f/	.	8A-\)	.	.
.	.	.	.	.	.	.	.	.	.	.	16E-\JJ)	.	.	16e-/JJ)	.	.	.	.
=70	=70	=70	=70	=70	=70	=70	=70	=70	=70	=70	=70	=70	=70	=70	=70	=70	=70	=70
*	*	*	*	*	*	*	*	*	*	*	*	*	*	*	*	*	*clefF4	*
!	!	!	!	!	!LO:DY:t=pp.:rj	!	!LO:DY:rj	!	!	!	!	!	!	!	!	!LO:TX:t=P:problem:potrójna ligatura	!	!
[2.D-\	.	8r	.	(16f^\LL	pp	(>16f^/LL	pp	[4.ff\	.	4DD-/	8D-\L	.	2.r	4d-/	.	[2.D-\	[>2.F\ [>2.A-	.
.	.	.	.	16g-\	.	16g-/	.	.	.	.	.	.	.	.	.	.	.	.
.	.	8AA-/L	.	16b-\	.	16b-/	.	.	.	.	8AA-^\	.	.	.	.	.	.	.
.	.	.	.	16a-\	.	16a-/	.	.	.	.	.	.	.	.	.	.	.	.
.	.	8D-/J	.	16g-\	.	16g-/	.	.	.	8r	8D-\J	.	.	8r	.	.	.	.
.	.	.	.	16f\JJ	.	16f/JJ	.	.	.	.	.	.	.	.	.	.	.	.
.	.	8A-\L	.	16e-/LL	.	16e-/LL	.	4ff\]	.	4r	8A-^\L	.	.	4r	.	.	.	.
.	.	.	.	16d-/	.	16d-/	.	.	.	.	.	.	.	.	.	.	.	.
.	.	8D-\	.	16c/	.	16c/	.	.	.	.	8D-\	.	.	.	.	.	.	.
.	.	.	.	16B-/	.	16B-/	.	.	.	.	.	.	.	.	.	.	.	.
.	.	8AA-\J	.	16A-/	.	16A-/	.	8r	.	8r	8AA-^\J	.	.	8r	.	.	.	.
.	.	.	.	16f/JJ)	.	16f/JJ)	.	.	.	.	.	.	.	.	.	.	.	.
=71	=71	=71	=71	=71	=71	=71	=71	=71	=71	=71	=71	=71	=71	=71	=71	=71	=71	=71
*	*	*rep	*	*	*	*	*	*	*	*	*	*	*	*	*	*rep	*rep	*
!	!	!	!	!	!	!	!	!	!LO:DY:t=pp.:rj	!	!	!	!	!	!	!	!	!
2.D-^\_	.	8r	.	2.A-/	.	2.f/	.	(16dd-^\LL	pp	4DD-/	8r	.	2.r	2.r	.	2.D-\_	2.F\_> 2.A-_>	.
.	.	.	.	.	.	.	.	16ee-\	.	.	.	.	.	.	.	.	.	.
.	.	8AA-/L	.	.	.	.	.	16gg-\	.	.	8AA-^/L	.	.	.	.	.	.	.
.	.	.	.	.	.	.	.	16ff\	.	.	.	.	.	.	.	.	.	.
.	.	8D-/J	.	.	.	.	.	16ee-\	.	8r	8D-/J	.	.	.	.	.	.	.
.	.	.	.	.	.	.	.	16dd-\JJ	.	.	.	.	.	.	.	.	.	.
.	.	8A-\L	.	.	.	.	.	16cc/LL	.	4r	8A-^\L	.	.	.	.	.	.	.
.	.	.	.	.	.	.	.	16b-/	.	.	.	.	.	.	.	.	.	.
.	.	8D-\	.	.	.	.	.	16a-/	.	.	8D-\	.	.	.	.	.	.	.
.	.	.	.	.	.	.	.	16g-/	.	.	.	.	.	.	.	.	.	.
.	.	8AA-\J	.	.	.	.	.	16f/	.	8r	8AA-^\J	.	.	.	.	.	.	.
.	.	.	.	.	.	.	.	16dd-/JJ)	.	.	.	.	.	.	.	.	.	.
*	*	*Xrep	*	*	*	*	*	*	*	*	*	*	*	*	*	*Xrep	*Xrep	*
!!LO:PB:g=original
=72	=72	=72	=72	=72	=72	=72	=72	=72	=72	=72	=72	=72	=72	=72	=72	=72	=72	=72
*	*	*rep	*	*	*	*	*	*	*	*rep	*rep	*	*	*	*	*rep	*rep	*
!	!	!	!	!	!	!	!	!	!	!	!	!	!	!	!	!LO:TX:t=P:problem:potrójna ligatura	!	!
2.D-^\_	.	8r	.	(16f\LL	.	(>16f/LL	.	2.dd-\	.	4DD-/	8r	.	2.r	2.r	.	2.D-^\_	2.F\] 2.A-_>	.
.	.	.	.	16g-\	.	16g-/	.	.	.	.	.	.	.	.	.	.	.	.
.	.	8AA-/L	.	16b-\	.	16b-/	.	.	.	.	8AA-^/L	.	.	.	.	.	.	.
.	.	.	.	16a-\	.	16a-/	.	.	.	.	.	.	.	.	.	.	.	.
.	.	8D-/J	.	16g-\	.	16g-/	.	.	.	8r	8D-/J	.	.	.	.	.	.	.
.	.	.	.	16f\JJ	.	16f/JJ	.	.	.	.	.	.	.	.	.	.	.	.
.	.	8A-\L	.	16e-\LL	.	16e-/LL	.	.	.	4r	8A-^\L	.	.	.	.	.	.	.
.	.	.	.	16d-\	.	16d-/	.	.	.	.	.	.	.	.	.	.	.	.
.	.	8D-\	.	16c\	.	16c/	.	.	.	.	8D-\	.	.	.	.	.	.	.
.	.	.	.	16B-\	.	16B-/	.	.	.	.	.	.	.	.	.	.	.	.
.	.	8AA-\J	.	16A-\	.	16A-/	.	.	.	8r	8AA-^\J	.	.	.	.	.	.	.
.	.	.	.	16f\JJ)	.	16f/JJ)	.	.	.	.	.	.	.	.	.	.	.	.
*	*	*Xrep	*	*	*	*	*	*	*	*Xrep	*Xrep	*	*	*	*	*Xrep	*Xrep	*
=73	=73	=73	=73	=73	=73	=73	=73	=73	=73	=73	=73	=73	=73	=73	=73	=73	=73	=73
*	*	*rep	*	*	*	*	*	*	*	*rep	*rep	*	*	*	*	*rep	*rep	*
2.D-^\]	.	8r	.	[2.A-/	.	4f/	.	(16a-/LL	.	4DD-/	8r	.	2.r	2.r	.	2.D-\_	[>2.F\ 2.A-_	.
.	.	.	.	.	.	.	.	16b-/	.	.	.	.	.	.	.	.	.	.
.	.	8AA-/L	.	.	.	.	.	16dd-/	.	.	8AA-^/L	.	.	.	.	.	.	.
.	.	.	.	.	.	.	.	16cc-X/	.	.	.	.	.	.	.	.	.	.
.	.	8D-/J	.	.	.	8r	.	16b-/	.	8r	8D-/J	.	.	.	.	.	.	.
.	.	.	.	.	.	.	.	16a-/JJ	.	.	.	.	.	.	.	.	.	.
.	.	8A-\L	.	.	.	4r	.	16g-/LL	.	4r	8A-^\L	.	.	.	.	.	.	.
.	.	.	.	.	.	.	.	16f/	.	.	.	.	.	.	.	.	.	.
.	.	8D-\	.	.	.	.	.	16e-/	.	.	8D-\	.	.	.	.	.	.	.
.	.	.	.	.	.	.	.	16d-/	.	.	.	.	.	.	.	.	.	.
.	.	8AA-\J	.	.	.	8r	.	16c-X^/	.	8r	8AA-^\J	.	.	.	.	.	.	.
.	.	.	.	.	.	.	.	16a-/JJ)	.	.	.	.	.	.	.	.	.	.
*	*	*Xrep	*	*	*	*	*	*	*	*Xrep	*Xrep	*	*	*	*	*Xrep	*Xrep	*
=74	=74	=74	=74	=74	=74	=74	=74	=74	=74	=74	=74	=74	=74	=74	=74	=74	=74	=74
*rep	*	*rep	*	*	*	*	*	*	*	*	*	*	*	*	*	*rep	*rep	*
2.D-^\	.	8r	.	4A-/]	.	2.r	.	(4.a-/	.	2.r	(16D-\LL	.	2.r	8r	.	(>2.D-\]	2.F\] (2.A-_>	.
.	.	.	.	.	.	.	.	.	.	.	16F\	.	.	.	.	.	.	.
.	.	8AA-/L	.	.	.	.	.	.	.	.	16A-\	.	.	8r	.	.	.	.
.	.	.	.	.	.	.	.	.	.	.	16F\	.	.	.	.	.	.	.
.	.	8D-/J	.	8r	.	.	.	.	.	.	16D-\	.	.	(16dd-^<\LL	.	.	.	.
.	.	.	.	.	.	.	.	.	.	.	16C\JJ	.	.	16ddd-\JJ	.	.	.	.
.	.	8A-\L	.	4r	.	.	.	4.f/	.	.	16C-X/LL	.	.	8aa-'\)	.	.	.	.
.	.	.	.	.	.	.	.	.	.	.	16D-/	.	.	.	.	.	.	.
.	.	8D-\	.	.	.	.	.	.	.	.	16F/	.	.	8r	.	.	.	.
.	.	.	.	.	.	.	.	.	.	.	16D-/	.	.	.	.	.	.	.
!	!	!	!	!	!	!	!	!	!	!	!	!	!	!LO:TX:t=P:problem:mixed beam	!	!	!	!
.	.	8AA-\J	.	8r	.	.	.	.	.	.	16C-/	.	.	(16a-^</LL	.	.	.	.
.	.	.	.	.	.	.	.	.	.	.	16BB-/JJ	.	.	16aa-\JJ	.	.	.	.
*Xrep	*	*Xrep	*	*	*	*	*	*	*	*	*	*	*	*	*	*Xrep	*Xrep	*
=75	=75	=75	=75	=75	=75	=75	=75	=75	=75	=75	=75	=75	=75	=75	=75	=75	=75	=75
!	!	!	!	!	!	!	!	!LO:TX:b:t=pizzi	!	!	!	!	!	!	!	!	!	!
4D-\	.	4D-\	.	4r	.	4r	.	4a-/)	.	4r	16AA-/LL	.	4r	8dd-'\)	.	4DD-/)	4A-\] 4c)	.
.	.	.	.	.	.	.	.	.	.	.	16C-X/	.	.	.	.	.	.	.
.	.	.	.	.	.	.	.	.	.	.	16D-/	.	.	8r	.	.	.	.
.	.	.	.	.	.	.	.	.	.	.	16C-/	.	.	.	.	.	.	.
!	!	!	!	!LO:TX:b:t=pizzi	!	!LO:TX:b:t=pizzi	!	!	!	!	!	!	!	!	!	!	!	!
8r	.	8r	.	8r	.	8r	.	8r	.	8r	16AA-/	.	8r	(16dd-^<\LL	.	8r	8r	.
.	.	.	.	.	.	.	.	.	.	.	16FF/JJ	.	.	16ddd-\JJ	.	.	.	.
*	*	*	*	*	*	*	*	*	*	*	*	*	*	*	*	*	*clefG2	*
!	!	!	!LO:DY:t=pp.	!	!LO:DY:t=pp.	!	!LO:DY:t=pp.	!	!LO:DY:a:t=pp.	!	!	!LO:DY:t=pp.	!	!	!LO:DY:t=pp.	!	!	!LO:DY:rj
4AA-/	pp	4AA-/	pp	4E-/	pp	4c/	pp	4A-/ 4g-	pp	4AAA-/	16EE-/LL	pp	4A-/ 4c 4g-	8aa-'\)	pp	4AA-/ 4E-	4A-/ 4cn 4g-	pp
.	.	.	.	.	.	.	.	.	.	.	16AA-/	.	.	.	.	.	.	.
.	.	.	.	.	.	.	.	.	.	.	16E-/	.	.	8r	.	.	.	.
.	.	.	.	.	.	.	.	.	.	.	16AA-/	.	.	.	.	.	.	.
!	!	!	!	!	!	!	!	!	!	!	!	!	!	!LO:TX:t=P:problem:mixed beam	!	!	!	!
8r	.	8r	.	8r	.	8r	.	8r	.	8r	16E-/	.	8r	(16a-^</LL	.	8r	8r	.
.	.	.	.	.	.	.	.	.	.	.	16AA-/JJ)	.	.	16aa-\JJ)	.	.	.	.
=76	=76	=76	=76	=76	=76	=76	=76	=76	=76	=76	=76	=76	=76	=76	=76	=76	=76	=76
4D-\	.	4D-\	.	4F/	.	4d-/	.	4A-/ 4f	.	4DD-/	4D-\ 4F	.	4A-/ 4d- 4f	4dd-\	.	4D-\	4A-/ 4d- 4f	.
8r	.	8r	.	8r	.	8r	.	8r	.	8r	8r	.	8r	8r	.	8r	8r	.
4r	.	4r	.	4r	.	4r	.	4r	.	4r	4r	.	4r	4r	.	4r	4r	.
8r	.	8r	.	8r	.	8r	.	8r	.	8r	8r	.	8r	8r	.	8r	8r	.
!!LO:PB:g=original
==	==	==	==	==	==	==	==	==	==	==	==	==	==	==	==	==	==	==
*-	*-	*-	*-	*-	*-	*-	*-	*-	*-	*-	*-	*-	*-	*-	*-	*-	*-	*-
!!!system-decoration: [(s1,s2)][(s3,s4)][(s5,s6)][(s7,s8,s9,s10,s11)]
!!!RDF**kern: < = below
!!!RDF**kern: > = above
!!!RDF**kern: | = vertical stroke
!!!RDF**kern: N = linked
!!!RDF**kern: @ = marked note, color=blue
!!!ENC: Tomasz Grochalski
!!!END: 2021-08-10
!!!ENC: Marta Chmielewska
!!!END: 2021-09-16
